<?xml version="1.0" encoding="UTF-8"?>
<map version="1.10" tiledversion="1.12.2" orientation="orthogonal" renderorder="right-down" width="120" height="68" tilewidth="8" tileheight="8" infinite="0" nextlayerid="6" nextobjectid="1">
 <tileset firstgid="1" source="roguelikeCity_magenta1111.tsx"/>
 <tileset firstgid="1037" source="roguelikeCity_8x8.tsx"/>
 <layer id="4" name="Tile Layer 2" width="120" height="68" opacity="0">
  <data encoding="csv">
4737,4738,4738,4739,4740,4741,4741,4741,4741,4815,4815,4815,4741,4741,4741,4741,4741,4741,4741,4741,4741,4741,4741,4741,4741,4741,4741,4741,4741,4741,4741,4741,4741,4741,4741,4741,4741,4741,4741,4741,4741,4741,4741,4741,4741,4741,4741,4741,4741,4741,4741,4741,4741,4741,4741,4741,4741,4741,4741,4741,4741,4741,4741,4741,4741,4741,4741,4741,4741,4741,4741,4741,4741,4741,4741,4741,4741,4741,4741,4741,4741,4741,4741,4741,4741,4741,4741,4741,4741,4741,4741,4741,4741,4741,4741,4741,4741,4741,4741,4741,4741,4741,4741,4741,4741,4741,4741,4741,4741,4741,4741,4741,4741,4741,4741,4741,4741,4741,4741,4742,
4811,4812,4812,4813,4814,4815,4815,4815,4815,4813,4814,4815,4815,4815,4815,4815,4815,4815,4815,4815,4815,4815,4815,4815,4815,4815,4815,4815,4815,4815,4815,4815,4815,4815,4815,4815,4815,4815,4815,4815,4815,4815,4815,4815,4815,4815,4815,4815,4815,4815,4815,4815,4815,4815,4815,4815,4815,4815,4815,4815,4815,4815,4815,4815,4815,4815,4815,4815,4815,4815,4815,4815,4815,4815,4815,4815,4815,4815,4815,4815,4815,4815,4815,4815,4815,4815,4815,4815,4815,4815,4815,4815,4815,4815,4815,4815,4815,4815,4815,4815,4815,4815,4815,4815,4815,4815,4815,4815,4815,4815,4815,4815,4815,4815,4815,4815,4815,4815,4815,4816,
4811,4812,0,0,0,0,0,0,0,0,0,0,0,0,0,0,0,0,0,0,1053,1054,1055,1055,1055,1055,1055,1055,1054,1055,1055,1055,1055,1055,1055,1055,1055,1055,1055,1055,1055,1055,1055,1360,3937,3938,0,0,0,0,0,0,0,0,0,0,0,0,0,0,0,0,0,0,0,0,0,0,3940,3871,3871,3871,3871,3871,3871,3871,3871,3871,3872,3871,3872,3872,3871,3872,3872,3872,3872,3872,3872,3872,3872,3872,3872,3872,3872,3872,3872,3871,3871,3871,3871,3871,3872,3871,3872,0,0,0,0,0,0,0,0,0,0,0,0,0,4815,4816,
4811,4812,0,0,0,0,0,0,0,0,0,0,0,0,0,0,0,0,0,0,1127,1128,1128,1128,1128,1128,1128,1128,1128,1128,1128,1128,1128,1128,1128,1128,1128,1128,1128,1128,1128,1128,1128,1434,3937,3938,0,0,0,0,0,0,0,0,0,0,0,0,0,0,0,0,0,0,0,0,0,0,3940,3945,3945,3945,3871,3945,3871,3945,3945,3871,3872,3871,3871,3872,3871,3872,3946,3946,3946,3871,3871,3872,3946,3946,3946,3871,3871,3871,3871,3945,3945,3945,3945,3945,3946,3872,3872,0,0,0,0,0,0,0,0,0,0,0,0,0,4889,4890,
4811,4812,0,0,0,0,0,0,0,0,0,0,0,0,0,0,0,0,0,0,1127,1128,1128,1128,1128,1128,1128,1128,1128,1128,1128,1128,1128,1128,1128,1128,1128,1128,1128,1128,1128,1128,1128,1434,3937,3938,0,0,0,0,0,0,0,0,0,0,0,0,0,0,0,0,0,0,0,0,0,0,3940,3945,3946,3946,3871,3945,3871,3871,3872,3871,3871,3945,3871,3871,3871,3872,3871,3871,3871,3871,3871,3871,3871,3871,3871,3871,3871,3871,3871,3871,3945,3946,3946,3946,3946,3946,3946,0,0,0,0,0,0,0,0,0,0,0,0,0,4963,4964,
4811,4812,1,2,2,2,2,2,2,2,2,2,2,2,2,2,2,2,2,0,1201,1202,1202,1202,1202,1202,1202,1202,1202,1202,1202,1202,1202,1202,1202,1202,1202,1202,1202,1202,1202,1202,1202,1434,3937,3938,0,0,0,0,0,0,0,0,0,0,0,0,0,0,0,0,0,0,0,0,0,0,3940,3871,3872,3871,3945,3871,3945,3871,3872,3945,3945,3871,3871,3945,3871,3871,3945,3871,3871,3945,3871,3871,3945,3871,3945,3945,3945,3945,3871,3871,3871,3871,3871,3871,3945,3945,3946,3872,0,0,0,0,0,0,0,0,0,0,0,0,5037,5038,
4811,4812,38,0,7,7,7,7,7,7,7,7,7,0,0,7,7,7,0,0,1275,1276,1276,1276,1276,1276,1276,1276,1276,1276,1276,1276,1276,1276,1276,1276,1276,1276,1276,1276,1276,1276,1276,1582,3937,3938,0,0,0,0,0,0,0,0,0,0,0,0,0,0,0,0,0,0,0,0,0,0,3940,3871,3872,3871,3945,3871,3871,3871,3872,3945,3945,3945,3945,3945,3945,3945,3945,3945,3945,3945,3945,3945,3945,3945,3945,3946,3946,3946,3945,3945,3945,3945,3945,3945,3945,3945,3946,3946,0,0,0,0,0,0,0,0,0,0,0,0,5037,5038,
4811,4812,38,39,7,7,7,7,7,7,7,7,7,7,7,7,7,7,39,0,2401,2402,2403,2404,2405,2406,2401,2402,2403,2404,2405,2406,2401,2402,2403,2404,2405,2406,2401,2402,2403,2404,2405,2406,3937,3938,0,0,0,0,0,0,0,0,0,0,0,0,0,0,0,0,0,0,0,0,0,0,3940,3871,3872,3945,3945,3871,3945,3871,3871,3945,3946,0,0,0,0,0,0,0,0,0,0,0,0,0,0,0,0,0,0,0,0,0,0,0,0,0,0,0,0,0,0,0,0,0,0,0,0,0,0,0,5037,5038,
4811,4812,38,39,7,7,7,7,7,7,7,7,7,7,7,7,7,39,39,0,2475,2476,2477,2478,2479,2480,2475,2476,2477,2478,2479,2480,2475,2476,2477,2478,2479,2480,2475,2476,2477,2478,2479,2480,3937,3938,0,0,0,0,0,0,0,0,0,0,0,0,0,0,0,0,0,0,0,0,0,0,3940,3871,3872,3946,3871,3945,3945,3871,3871,3945,3946,0,0,0,0,0,0,0,0,0,0,0,0,0,0,0,0,0,0,0,0,0,0,0,0,0,0,0,0,0,0,0,0,0,0,0,0,0,0,0,5037,5038,
4811,4812,38,39,7,7,7,7,7,7,7,7,7,7,7,7,7,0,39,0,2549,2550,2551,2552,2553,2554,2549,2550,2551,2552,2553,2554,2549,2550,2551,2552,2553,2554,2549,2550,2551,2552,2553,2554,3937,3938,0,0,0,0,0,0,0,0,0,0,0,0,0,0,0,0,0,0,0,0,0,0,3940,3871,3872,3946,3871,3945,3946,3871,3945,3945,3946,0,0,0,0,0,0,0,0,0,0,0,0,0,0,0,0,0,0,0,0,0,0,0,0,0,0,0,0,0,0,0,0,0,0,0,0,0,0,0,5037,5038,
4811,4812,38,39,7,7,7,7,7,7,7,7,7,39,7,7,7,7,39,0,2401,2402,2403,2404,2405,2406,2401,2402,2403,2404,2405,2406,2401,2402,2403,2404,2405,2406,2401,2402,2403,2404,2405,2406,3937,3938,0,0,0,0,0,0,0,0,0,0,0,0,0,0,0,0,0,0,0,0,0,0,3940,3871,3872,3946,3871,3871,3871,3871,3945,3945,3946,0,0,0,0,0,0,0,0,0,0,0,0,0,0,0,0,0,0,0,0,0,0,0,0,0,0,0,0,0,0,0,0,0,0,0,0,0,0,0,5037,5038,
4811,4812,38,39,7,7,0,7,7,0,7,0,7,7,7,7,7,7,39,0,2475,2476,2477,2478,2479,2480,2475,2476,2477,2478,2479,2480,2475,2476,2477,2478,2479,2480,2475,2476,2477,2478,2479,2480,3937,3938,0,0,0,0,0,0,0,0,0,0,0,0,0,0,0,0,0,0,0,0,0,0,3940,3871,3872,3871,3871,3945,3871,3945,3945,3945,3946,0,0,0,0,0,0,0,0,0,0,0,0,0,0,0,0,0,0,0,0,0,0,0,0,0,0,0,0,0,0,0,0,0,0,0,0,0,0,0,5037,5038,
4811,4812,38,39,7,0,0,0,0,0,0,0,7,7,0,0,0,0,39,0,2549,2550,2551,2552,2553,2554,2549,2550,2551,2552,2553,2554,2549,2550,2551,2552,2553,2554,2549,2550,2551,2552,2553,2554,3937,3938,0,0,0,0,0,0,0,0,0,0,0,0,0,0,0,0,0,0,0,0,0,0,3940,3871,3872,3945,3871,3945,3871,3871,3871,3945,3946,0,0,0,0,0,0,0,0,0,0,0,0,0,0,0,0,0,0,0,0,0,0,0,0,0,0,0,0,0,0,0,0,0,0,0,0,0,0,0,5037,5038,
4811,4812,38,39,39,39,39,39,39,39,39,39,39,39,39,39,39,39,39,0,2401,2402,2403,2404,2405,2406,2401,2402,2403,2404,2405,2406,2401,2402,2403,2404,2405,2406,2401,2402,2403,2404,2405,2406,3937,3938,0,0,0,0,0,0,0,0,0,0,0,0,0,0,0,0,0,0,0,0,0,0,3940,3871,3871,3945,3871,3945,3871,3945,3871,3871,3872,0,0,0,0,0,0,0,0,0,0,0,0,0,0,0,0,0,0,0,0,0,0,0,0,0,0,0,0,0,0,0,0,0,0,0,0,0,0,0,5037,5038,
4811,4812,0,0,0,0,0,0,0,0,0,0,0,0,0,0,0,0,0,0,2475,2476,2477,2478,2479,2480,2475,2476,2477,2478,2479,2480,2475,2476,2477,2478,2479,2480,2475,2476,2477,2478,2479,2480,3937,3938,0,0,0,0,0,0,0,0,0,0,0,0,0,0,0,0,0,0,0,0,0,0,3940,3871,3945,3945,3871,3872,3871,3945,3945,3871,3872,0,0,0,0,0,0,0,0,0,0,0,0,0,0,0,0,0,0,0,0,0,0,0,0,0,0,0,0,0,0,0,0,0,0,0,0,0,0,0,5037,5038,
4811,4812,188,188,188,188,188,188,188,188,188,188,188,188,188,188,188,188,189,0,2549,2550,2551,2552,2553,2554,2549,2550,2551,2552,2553,2554,2549,2550,2551,2552,2553,2554,2549,2550,2551,2552,2553,2554,3937,3938,0,0,0,0,0,0,0,0,0,0,0,0,0,0,0,0,0,0,0,0,0,0,3940,3871,3945,3946,3871,3872,3871,3945,3871,3872,3872,0,0,0,0,0,0,0,0,0,0,0,0,0,0,0,0,0,0,0,0,0,0,0,0,0,0,0,0,0,0,0,0,0,0,0,0,0,0,0,5037,5038,
4811,4812,225,225,225,225,225,225,225,225,225,225,225,225,225,225,225,225,226,0,2401,2402,2403,2404,2405,2406,2401,2402,2403,2404,2405,2406,2401,2402,2403,2404,2405,2406,2401,2402,2403,2404,2405,2406,3937,3938,0,0,0,0,0,0,0,0,0,0,0,0,0,0,0,0,0,0,0,0,0,0,3940,3945,3945,3946,3871,3872,3871,3945,3945,3946,3946,0,0,0,0,0,0,0,0,0,0,0,0,0,0,0,0,0,0,0,0,0,0,0,0,0,0,0,0,0,0,0,0,0,0,0,0,0,0,0,5037,5038,
4811,4812,1781,1781,1781,1781,1781,1781,1781,1781,1781,1781,1781,1781,1781,1781,0,0,0,0,2475,2476,2477,2478,2479,2480,2475,2476,2477,2478,2479,2480,2475,2476,2477,2478,2479,2480,2475,2476,2477,2478,2479,2480,3937,3938,0,0,0,0,0,0,0,0,0,0,0,0,0,0,0,0,0,0,0,0,0,0,3940,3945,3946,3872,3871,3872,3945,3945,3946,3945,3946,0,0,0,0,0,0,0,0,0,0,0,0,0,0,0,0,0,0,0,0,0,0,0,0,0,0,0,0,0,0,0,0,0,0,0,0,0,0,0,5037,5038,
4811,4812,2079,1781,1782,2078,2079,2079,1781,1782,2078,2079,2078,2079,1781,1782,189,189,189,0,2549,2550,2551,2552,2553,2554,2549,2550,2551,2552,2553,2554,2549,2550,2551,2552,2553,2554,2549,2550,2551,2552,2553,2554,3937,3938,0,0,0,0,0,0,0,0,0,0,0,0,0,0,0,0,0,0,0,0,0,0,3940,3945,3946,3872,3871,3872,3945,3946,3945,3946,3872,0,0,0,0,0,0,0,0,0,0,0,0,0,0,0,0,0,0,0,0,0,0,0,0,0,0,0,0,0,0,0,0,0,0,0,0,0,0,0,5037,5038,
4811,4812,2153,1855,1856,2152,2153,2153,1855,1856,2152,2153,2152,2153,1855,1856,262,262,263,0,2401,2402,2403,2404,2405,2406,2401,2402,2403,2404,2405,2406,2401,2402,2403,2404,2405,2406,2401,2402,2403,2404,2405,2406,3937,3938,0,0,0,0,0,0,0,0,0,0,0,0,0,0,0,0,0,0,0,0,0,0,3940,3945,3946,3872,3871,3872,3871,3872,3945,3946,3872,0,0,0,0,0,0,0,0,0,0,0,0,0,0,0,0,0,0,0,0,0,0,0,0,0,0,0,0,0,0,0,0,0,0,0,0,0,0,0,5037,5038,
4811,4812,0,0,1781,1781,1781,1781,1782,1781,1781,1781,1781,1782,1781,1781,1781,1781,1782,1784,2475,2476,2477,2478,2479,2480,2475,2476,2477,2478,2479,2480,2475,2476,2477,2478,2479,2480,2475,2476,2477,2478,2479,2480,3937,3938,0,0,0,0,0,0,0,0,0,0,0,0,0,0,0,0,0,0,0,0,0,0,3940,3945,3946,3946,3871,3872,3871,3872,3945,3945,3946,0,0,0,0,0,0,0,0,0,0,0,0,0,0,0,0,0,0,0,0,0,0,0,0,0,0,0,0,0,0,0,0,0,0,0,0,0,0,0,5037,5038,
4811,4812,188,0,1781,1781,1855,1781,1781,1781,1855,1855,1781,1781,1781,1781,1781,1781,1782,1784,2549,2550,2551,2552,2553,2554,2549,2550,2551,2552,2553,2554,2549,2550,2551,2552,2553,2554,2549,2550,2551,2552,2553,2554,3937,3938,0,0,0,0,0,0,0,0,0,0,0,0,0,0,0,0,0,0,0,0,0,0,3940,3945,3946,3945,3871,3872,3871,3872,3945,3945,3946,0,0,0,0,0,0,0,0,0,0,0,0,0,0,0,0,0,0,0,0,0,0,0,0,0,0,0,0,0,0,0,0,0,0,0,0,0,0,0,5037,5038,
4811,4812,188,188,1855,1855,1855,1855,1855,1855,1855,1855,1855,1855,1855,1855,1855,1855,1856,1858,2401,2402,2403,2404,2405,2406,2401,2402,2403,2404,2405,2406,2401,2402,2403,2404,2405,2406,2401,2402,2403,2404,2405,2406,3937,3938,0,0,0,0,0,0,0,0,0,0,0,0,0,0,0,0,0,0,0,0,0,0,3940,3871,3945,3945,3871,3871,3871,3872,3945,3946,3946,0,0,0,0,0,0,0,0,0,0,0,0,0,0,0,0,0,0,0,0,0,0,0,0,0,0,0,0,0,0,0,0,0,0,0,0,0,0,0,5037,5038,
4811,4812,0,0,0,0,0,0,0,0,0,0,0,188,188,188,188,1782,1783,1784,2475,2476,2477,2478,2479,2480,2475,2476,2477,2478,2479,2480,2475,2476,2477,2478,2479,2480,2475,2476,2477,2478,2479,2480,3937,3938,0,0,0,0,0,0,0,0,0,0,0,0,0,0,0,0,0,0,0,0,0,0,3940,3871,3945,3946,3945,3871,3871,3872,3945,3946,3946,0,0,0,0,0,0,0,0,0,0,0,0,0,0,0,0,0,0,0,0,0,0,0,0,0,0,0,0,0,0,0,0,0,0,0,0,0,0,0,5037,5038,
4811,4812,188,188,188,188,188,188,188,188,188,188,188,188,188,188,1781,1782,1783,1784,2549,2550,2551,2552,2553,2554,2549,2550,2551,2552,2553,2554,2549,2550,2551,2552,2553,2554,2549,2550,2551,2552,2553,2554,3937,3938,0,0,0,0,0,0,0,0,0,0,0,0,0,0,0,0,0,0,0,0,0,0,3940,3871,3945,3946,3945,3871,3871,3871,3871,3945,3946,0,0,0,0,0,0,0,0,0,0,0,0,0,0,0,0,0,0,0,0,0,0,0,0,0,0,0,0,0,0,0,0,0,0,0,0,0,0,0,5037,5038,
4811,4812,2224,2224,2225,2226,2227,1781,1782,2224,2225,2226,2227,1781,1782,0,2225,2226,2227,2228,2401,2402,2403,2404,2405,2406,2401,2402,2403,2404,2405,2406,2401,2402,2403,2404,2405,2406,2401,2402,2403,2404,2405,2406,3937,3938,0,0,0,0,0,0,0,0,0,0,0,0,0,0,0,0,0,0,0,0,0,0,3940,3871,3945,3946,3945,3871,3871,3945,3945,3945,3946,0,0,0,0,0,0,0,0,0,0,0,0,0,0,0,0,0,0,0,0,0,0,0,0,0,0,0,0,0,0,0,0,0,0,0,0,0,0,0,5037,5038,
4811,4812,2298,2298,2299,2300,2301,1855,1856,2298,2299,2300,2301,1855,1856,299,2299,2300,2301,2302,2475,2476,2477,2478,2479,2480,2475,2476,2477,2478,2479,2480,2475,2476,2477,2478,2479,2480,2475,2476,2477,2478,2479,2480,3937,3938,0,0,0,0,0,0,0,0,0,0,0,0,0,0,0,0,0,0,0,0,0,0,3940,3871,3945,3946,3945,3871,3945,3945,3945,3946,3872,0,0,0,0,0,0,0,0,0,0,0,0,0,0,0,0,0,0,0,0,0,0,0,0,0,0,0,0,0,0,0,0,0,0,0,0,0,0,0,5037,5038,
4811,4812,3923,3924,3924,3925,3926,3927,3849,3924,3924,3925,3926,3927,3849,3850,3849,3850,3851,3852,2549,2550,2551,2552,2553,2554,2549,2550,2551,2552,2553,2554,2549,2550,2551,2552,2553,2554,2549,2550,2551,2552,2553,2554,3937,3938,3938,3938,3937,3938,3937,3938,3936,3936,3936,3936,3937,3936,3937,3938,0,0,0,0,0,0,0,0,3940,3945,3945,3946,3945,3871,3871,3945,3945,3946,3946,0,0,0,0,0,0,0,0,0,0,0,0,0,0,0,0,0,0,0,0,0,0,0,0,0,0,0,0,0,0,0,0,0,0,0,0,0,0,0,5037,5038,
4811,4812,3923,3998,3924,3924,3924,3924,3924,3998,3998,3999,4000,4001,3924,3924,3924,3925,3926,3927,2401,2550,2551,2551,2551,2554,2549,2550,2550,2550,2551,2554,2549,2550,2551,2551,2551,2554,2549,2550,2550,2550,2551,2554,4011,4012,3937,3937,3937,3937,4011,4012,4010,4010,4010,3936,3937,3936,3937,3938,3936,3937,3936,3936,3936,3937,3938,0,3940,3945,3946,3945,3946,3871,3871,3945,3945,3945,3946,0,0,0,0,0,0,0,0,0,0,0,0,0,0,0,0,0,0,0,0,0,0,0,0,0,0,0,0,0,0,0,0,0,0,0,0,0,0,0,4889,4890,
4811,4812,3923,3925,3926,3927,3927,3927,3927,3927,3927,3927,3927,3924,3924,3924,3925,3926,3927,4001,2549,2550,2551,2551,2551,2554,2549,2550,2550,2550,2551,2554,2549,2550,2551,2551,2551,2554,2549,2550,2550,2551,2551,2554,4085,4086,4011,4011,4011,4011,4085,4086,3936,4010,4011,3936,3937,3936,3937,3938,4010,4011,4010,4010,3936,3937,3938,3938,3940,3945,3871,3945,3946,3871,3871,3945,3945,3945,3946,0,0,0,0,0,0,0,0,0,0,0,0,0,0,0,0,0,0,0,0,0,0,0,0,0,0,0,0,0,0,0,0,0,0,0,0,0,0,0,4963,4964,
4885,4886,3997,3924,3924,3924,3924,3924,3924,3924,3924,3924,3924,3998,3998,3924,3924,3925,3926,3927,2623,2624,2625,2626,2624,2625,2624,2625,2626,2624,2625,2626,2624,2625,2626,2627,2624,2625,2624,2624,2625,2626,2627,2628,4085,3936,3937,3938,3936,3936,3936,3937,4010,4010,4011,3936,3937,3936,3937,3938,4010,4011,4010,4011,3936,3937,3938,4012,3940,3945,3871,3945,3946,3871,3871,3872,3945,3946,3872,0,0,0,0,0,0,0,0,0,0,0,0,0,0,0,0,0,0,0,0,0,0,0,0,0,0,0,0,0,0,0,0,0,0,0,0,0,0,0,5037,5038,
4959,4960,4071,3998,3998,3999,3999,3999,3999,3999,3999,3999,3999,3999,3999,3999,3999,3999,4000,4001,3999,3999,4000,3999,4000,3999,3999,3999,4000,3999,4000,3999,3999,3999,3999,4000,3999,4000,3999,3999,4000,4000,3999,4000,3936,3937,3938,3936,4010,3936,3936,3937,4010,4011,4012,3936,3937,3936,3937,3936,4010,4011,4010,4011,3936,3937,3938,0,3940,3945,3871,3945,3946,3871,3871,3872,3945,3946,3946,0,0,0,0,0,0,0,0,0,0,0,0,0,0,0,0,0,0,0,0,0,0,0,0,0,0,0,0,0,0,0,0,0,0,0,0,0,0,0,5037,5038,
5033,5034,3935,3937,3936,3936,3937,3938,3937,3938,3936,3937,3938,3936,3936,3936,3937,3938,3938,3939,3999,4000,3999,3999,3999,4073,4073,3999,3999,4000,3999,4000,3999,4073,3999,3999,3999,3999,4073,3999,4000,3999,3999,4000,3936,3937,3938,4010,4010,4010,3936,3937,4010,4011,4012,3936,3937,3936,3936,4010,4010,4011,4012,4010,3936,3937,3938,0,3940,3945,3945,3945,3946,3871,3871,3871,3945,3946,3946,0,0,0,0,0,0,0,0,0,0,0,0,0,0,0,0,0,0,0,0,0,0,0,0,0,0,0,0,0,0,0,0,0,0,0,0,0,0,0,5037,5038,
4811,4812,3935,3936,4010,3936,3936,3936,3936,3936,3936,3936,3936,3936,3936,3936,3936,3937,3938,3939,3999,3999,4073,4073,3999,4073,4073,3999,4000,4000,3999,3999,3999,4073,3999,3999,3999,3999,4000,4000,4000,4073,3999,4000,3936,3937,3938,4010,4010,4011,3936,3936,4010,4011,3936,3937,3938,4010,3936,4010,4011,4012,0,0,4010,4011,4012,0,3940,3945,3946,3946,3872,3871,3871,3871,3945,3946,3946,0,0,0,0,0,0,0,0,0,0,0,0,0,0,0,0,0,0,0,0,0,0,0,0,0,0,0,0,0,0,0,0,0,0,0,0,0,0,0,5037,5038,
4885,4886,3935,3936,3937,4010,4010,4010,4010,4010,4010,4010,4010,4010,4010,4010,4010,4011,4012,3939,4073,4073,4073,4073,4073,4073,4073,3999,3999,3999,4073,3999,4073,3999,3999,4073,4073,3999,3999,3999,3999,4073,4073,4074,3936,3936,3936,4010,4010,4011,3936,4010,4010,4011,4010,4011,4012,3938,3936,4010,4011,4012,0,0,0,0,0,0,3940,3871,3945,3946,3946,3945,3871,3871,3945,3946,3872,0,0,0,0,0,0,0,0,0,0,0,0,0,0,0,0,0,0,0,0,0,0,0,0,0,0,0,0,0,0,0,0,0,0,0,0,0,0,0,5037,5038,
4959,4960,4009,4306,4307,4010,4011,4012,4307,4307,4307,4307,4307,4307,4307,4012,4013,4013,4013,4013,4073,4073,4074,4073,4073,4073,4074,4073,4073,4073,4073,4073,4073,4073,4073,4073,4074,4073,4073,4073,4073,4073,4073,4074,4010,4010,4010,4010,4011,4012,4010,4010,4011,4012,4010,4011,4012,4012,4010,4010,4011,4012,0,0,0,0,0,0,4014,3945,3945,3946,3946,3946,3871,3871,3945,3946,3872,0,0,0,0,0,0,0,0,0,0,0,0,0,0,0,0,0,0,0,0,0,0,0,0,0,0,0,0,0,0,0,0,0,0,0,0,0,0,0,5037,5038,
4811,4812,4379,4382,4381,4381,4381,4381,4381,4381,4381,4381,4382,4382,4382,4382,4382,4382,4382,4382,4382,4382,4382,4382,4382,4382,4382,4382,4382,4382,4381,4381,4381,4381,4381,4381,4381,4381,4381,4381,4381,4381,4381,4381,4381,4381,4381,4381,4381,4382,0,0,0,0,0,0,0,0,0,0,0,0,0,0,0,0,0,0,0,3945,3946,3946,3946,3946,3871,3871,3945,3946,3946,0,0,0,0,0,0,0,0,0,0,0,0,0,0,0,0,0,0,0,0,0,0,0,0,0,0,0,0,0,0,0,0,0,0,0,0,0,0,0,5037,5038,
4811,4812,3871,3871,3871,3871,3871,3871,3871,3871,3871,3871,3871,3871,3871,3871,3871,3871,3871,3871,3871,3871,3871,3871,3871,3871,3871,3871,3871,3871,3871,3871,3871,3871,3872,3871,3871,3871,3871,3871,3871,3871,3871,3871,3871,3872,3871,3872,3871,3871,3871,3871,3871,3871,3871,3871,3871,3871,3871,3871,3871,3871,4311,4312,4312,4312,3871,3871,3872,3871,3945,3946,3946,3946,3945,3871,3945,3945,3946,0,0,0,0,0,0,0,0,0,0,0,0,0,0,0,0,0,0,0,0,0,0,0,0,0,0,0,0,0,0,0,0,0,0,0,0,0,0,0,5037,5038,
4811,4812,3945,3945,3871,3871,3871,3871,3871,3871,3871,3871,3871,3871,3871,3871,3945,3945,3945,3945,3945,3945,3945,3945,3945,3945,3945,3871,3871,3871,3945,3945,3945,3871,3871,3945,3945,3945,3871,3945,3945,3945,3945,3871,3871,3871,3871,3871,3945,3945,3945,3945,3945,3945,3945,3871,3945,3945,3945,3871,3945,3945,4311,4311,4311,4312,3945,3871,3871,3871,3872,3945,3946,3946,3945,3871,3945,3946,3872,3872,0,0,0,0,0,0,0,0,0,0,0,0,0,0,0,0,0,0,0,0,0,0,0,0,0,0,0,0,0,0,0,0,0,0,0,0,0,0,5037,5038,
4885,4886,3871,3871,3945,3945,3945,3945,3945,3945,3945,3945,3945,3945,3945,3945,3945,3946,3872,3872,3872,3872,3871,3945,3945,3946,3872,3945,3945,3871,3871,3871,3945,3871,3871,3945,3871,3871,3871,3871,3871,3871,3871,3871,3945,3871,3945,3945,3945,3945,3945,3945,3871,3871,3871,3871,3871,3871,3871,3871,3945,3946,4311,4311,4311,4312,3871,3871,3871,3872,3872,3945,3945,3871,3945,3945,3945,3946,3872,3946,0,0,0,0,0,0,0,0,0,0,0,0,0,0,0,0,0,0,0,0,0,0,0,0,0,0,0,0,0,0,0,0,0,0,0,0,0,0,5037,5038,
4811,4812,3945,3945,3946,3946,3946,3946,3946,3946,3946,3946,3946,3946,3946,3946,3946,3871,3871,3871,3871,3871,3872,3945,3946,3946,3946,3945,3946,3945,3871,3871,3871,3872,3945,3871,3871,3871,3872,3871,3872,3945,3945,3945,3945,3945,3871,3872,3871,3872,3946,3946,3945,3871,3872,3871,3871,3872,3945,3945,3945,3946,4311,4311,4311,4312,3871,3871,3872,3872,3946,3945,3946,3945,3945,3946,3872,3946,3946,3946,0,0,0,0,0,0,0,0,0,0,0,0,0,0,0,0,0,0,0,0,0,0,0,0,0,0,0,0,0,0,0,0,0,0,0,0,0,0,5037,5038,
4885,4886,3867,3871,3867,3871,3867,3871,3867,3871,3867,3871,3867,3871,3867,3871,3867,3872,3867,3872,3867,3872,3867,3872,3867,3872,3867,3872,3867,3872,3867,3871,3867,3872,3867,3871,3867,3871,3867,3871,3867,3871,3867,3872,3867,3871,3867,3871,3867,3871,3867,3871,3867,3871,3867,3945,3867,3871,3867,3871,3867,3872,4311,4311,4311,4312,3871,3943,3871,3943,3871,3943,3946,3943,3945,3943,3871,3943,3872,3943,3871,3943,0,0,0,0,0,0,0,0,0,0,0,0,0,0,0,0,0,0,0,0,0,0,0,0,0,0,0,0,0,0,0,0,0,0,0,0,5037,5038,
4959,4960,3941,3872,3941,3872,3941,3872,3941,3872,3941,3872,3941,3872,3941,3872,3941,3872,3941,3946,3941,3871,3941,3946,3941,3946,3941,3946,3941,3871,3941,3871,3941,3871,3941,3871,3941,3872,3941,3871,3941,3872,3941,3872,3941,3871,3941,3945,3941,3871,3941,3945,3941,3871,3941,3945,3941,3871,3941,3871,3941,3872,4311,4311,4311,4312,3871,4017,3871,4017,3945,4017,3871,4017,3872,4017,3945,4017,3946,4017,3871,4017,0,0,0,0,0,0,0,0,0,0,0,0,0,0,0,0,0,0,0,0,0,0,0,0,0,0,0,0,0,0,0,0,0,0,0,0,5037,5038,
4811,4812,3871,3871,3871,3871,3871,3871,3872,3871,3871,3871,3872,3871,3871,3872,3872,3871,3871,3871,3871,3872,3871,3871,3871,3872,3872,3871,3871,3871,3871,3945,3871,3871,3945,3871,3871,3871,3871,3871,3871,3872,3871,3871,3871,3871,3871,3945,3871,3871,3871,3945,3871,3872,3945,3871,3872,3872,3872,3871,3872,3872,4311,4312,4312,4312,3871,3872,3871,3871,3945,3871,3872,3872,3946,3871,3871,3871,3945,3946,3871,3872,0,0,0,0,0,0,0,0,0,0,0,0,0,0,0,0,0,0,0,0,0,0,0,0,0,0,0,0,0,0,0,0,0,0,0,0,5037,5038,
4885,4886,3945,3945,3945,3945,3871,3871,3871,3871,3872,3871,3871,3871,3871,3872,3871,3871,3871,3872,3872,3871,3945,3871,3871,3871,3871,3871,3871,3871,3871,3945,3871,3871,3945,3945,3871,3945,3871,3871,3871,3871,3871,3945,3871,3871,3945,3945,3871,3871,3945,3945,3871,3871,3871,3872,3872,3946,3871,3945,3946,3946,4311,4312,4312,4312,3871,3871,3871,3871,3871,3871,3871,3871,3872,3872,3871,3945,3945,3946,3872,3872,0,0,0,0,0,0,0,0,0,0,0,0,0,0,0,0,0,0,0,0,0,0,0,0,0,0,0,0,0,0,0,0,0,0,0,0,5037,5038,
4811,4812,3945,3945,3945,3945,3945,3945,3945,3871,3871,3945,3945,3871,3871,3871,3945,3871,3871,3871,3871,3945,3945,3871,3945,3945,3945,3871,3945,3945,3945,3945,3871,3871,3945,3946,3945,3945,3871,3945,3871,3945,3871,3945,3871,3871,3945,3946,3871,3871,3945,3946,3871,3945,3871,3871,3871,3871,3945,3945,3945,3946,4311,4312,4312,4312,3871,3945,3945,3945,3871,3945,3945,3871,3871,3871,3945,3945,3946,3946,3871,3872,0,0,0,0,0,0,0,0,0,0,0,0,0,0,0,0,0,0,0,0,0,0,0,0,0,0,0,0,0,0,0,0,0,0,0,0,5037,5038,
4885,4886,3945,3945,3945,3946,3945,3946,3945,3945,3945,3945,3946,3945,3945,3945,3945,3945,3945,3945,3945,3945,3945,3945,3945,3946,3945,3945,3945,3945,3946,3945,3945,3945,3945,3946,3945,3946,3945,3945,3945,3945,3945,3945,3945,3945,3945,3946,3945,3945,3872,3872,3945,3945,3871,3945,3945,3945,3945,3946,3945,3946,4311,4312,4312,4312,3945,3945,3946,3945,3945,3945,3946,3945,3945,3945,3945,3946,3945,3946,3945,3946,0,0,0,0,0,0,0,0,0,0,0,0,0,0,0,0,0,0,0,0,0,0,0,0,0,0,0,0,0,0,0,0,0,0,0,0,5037,5038,
4811,4812,3862,3862,3862,3862,3862,3862,3862,3862,3862,3862,3862,3862,3862,3862,3862,3862,3862,3862,3863,3864,3865,3864,3865,3865,3865,3865,3865,3865,3865,3865,3865,3865,3865,3865,3865,3865,3865,3865,3865,3865,3865,3865,3865,3866,3872,3872,3872,3872,4164,4165,3871,3871,3872,3945,3861,3862,3862,3862,3863,3864,3865,3864,3865,3865,3864,3865,3865,3865,3865,3865,3865,3865,3862,3863,3864,3865,3865,3865,3865,0,0,0,0,0,0,0,0,0,0,0,0,0,0,0,0,0,0,0,0,0,0,0,0,0,0,0,0,0,0,0,0,0,0,0,0,0,5037,5038,
4811,4812,3936,3936,3937,3938,3939,3936,3936,3936,3936,3936,3936,3936,3936,3936,3937,3938,3939,3939,3936,3937,3938,3939,3936,3937,3938,3939,3939,3939,3939,3939,3939,3939,3936,3937,3938,3939,3939,3939,3939,3939,3939,3939,3939,3940,3871,3872,3872,3872,3871,3871,3871,3871,3871,3872,3935,3936,3936,3936,3937,3938,3939,3938,3939,3939,3938,3939,3939,3939,3939,3939,3939,3862,3863,3864,3865,3865,3939,3939,3939,3865,3865,3865,3865,3865,0,0,0,0,0,0,0,0,0,0,0,0,0,0,0,0,0,0,0,0,0,0,0,0,0,0,0,0,0,0,0,0,5037,5038,
4811,4812,3936,3937,3938,3939,3939,3937,3938,3939,3937,3938,3939,3937,3938,3939,3939,4012,4013,4013,3937,3938,3939,3939,3937,3938,3939,3939,3939,3936,3937,3938,3939,3939,3937,3938,3939,3939,4013,4013,4013,4013,3939,3939,3939,3940,3871,3871,3872,3871,4164,4165,3871,3871,3871,3872,3935,3936,4010,4010,4011,4012,4013,4012,4013,4013,4012,4013,4013,4013,4013,4013,4013,3862,3863,3864,3865,3939,4013,4013,4013,3939,3939,3939,3939,3939,3865,3865,3865,0,0,0,0,0,0,0,0,0,0,0,0,0,0,0,0,0,0,0,0,0,0,0,0,0,0,0,0,0,5037,5038,
4885,4886,3936,3937,3938,3939,3939,3939,3938,3939,3937,3938,3939,3938,3939,3939,4013,4086,4087,4087,3937,3938,3939,4013,3937,3938,3939,4013,4013,3937,3938,3939,3939,4013,3937,3938,3939,4013,4087,4087,4087,4087,4013,4013,4013,3940,3945,3871,3872,3945,3871,3945,3871,3871,3871,3872,3935,3936,3937,4010,4011,4012,4013,4011,4012,4013,4011,4012,4013,0,0,4010,3862,3863,3864,3865,3865,4013,4011,4012,4013,4013,4013,4013,4013,4013,3939,3939,3939,0,0,0,0,0,0,0,0,0,0,0,0,0,0,0,0,0,0,0,0,0,0,0,0,0,0,0,0,0,5037,5038,
4959,4960,3936,3937,3938,3939,4013,4013,3938,3939,3938,3939,3939,3938,3939,4013,4087,4085,4086,4087,3937,3938,3939,4087,3937,3938,3939,4087,4087,3937,3938,3939,4013,4087,3936,3937,3936,3937,3938,3939,3939,3939,4087,4087,4087,3940,3871,3872,3872,3871,4164,4165,3871,3871,3871,3872,3935,3936,3937,4010,4011,4012,4013,4011,4012,4013,4011,4012,4013,0,0,0,3936,3937,3938,3939,3939,4010,4010,4010,4010,4010,4010,4011,4012,4013,4013,4013,4013,0,0,0,0,0,0,0,0,0,0,0,0,0,0,0,0,0,0,0,0,0,0,0,0,0,0,0,0,0,5037,5038,
4811,4812,3936,3937,3938,3939,4087,4087,3939,3939,3939,3939,4013,3938,3939,4087,4087,4086,4087,4013,3939,3939,3939,4087,3937,3938,3939,4087,4087,3937,3938,3939,4087,4087,3939,3937,3936,3937,3938,3939,4013,4013,3939,4086,4087,3940,3871,3872,3871,3871,3871,3945,3945,3945,3871,3872,3935,3936,3937,4010,4011,4012,4013,4011,4012,4013,4011,4012,4013,0,0,0,4010,4011,4012,4013,4013,0,0,0,0,0,0,0,0,0,0,0,0,0,0,0,0,0,0,0,0,0,0,0,0,0,0,0,0,0,0,0,0,0,0,0,0,0,0,0,0,0,5037,5038,
4811,4812,3936,3937,3938,3939,4086,4087,4013,3939,4013,3939,4087,3938,3939,4086,4087,4087,3939,4087,4013,3939,4013,4087,3937,3938,3939,4087,4087,3937,3938,3939,4086,4087,3939,3939,3937,3938,3939,3939,4087,4087,4013,4087,3939,3940,3871,3871,3945,3871,4164,4165,3945,3946,3871,3872,3935,3936,3937,4010,4011,4012,4013,4013,0,0,0,0,0,0,0,0,0,0,0,0,0,0,0,0,0,0,0,0,0,0,0,0,0,0,0,0,0,0,0,0,0,0,0,0,0,0,0,0,0,0,0,0,0,0,0,0,0,0,0,0,0,0,5037,5038,
4811,4812,3936,3937,3938,3939,4086,4087,4087,3939,4087,3939,4087,3939,3939,4085,4086,4087,3939,4087,4087,3939,4087,4087,3938,3939,3939,4086,4087,3938,3939,3939,4086,4087,3939,4013,3937,3938,3939,4013,4086,4087,4087,4013,3939,3940,3945,3871,3945,3945,3871,3945,3871,3872,3871,3872,3935,3936,3937,0,4010,4011,4012,4013,0,0,0,0,0,0,0,0,0,0,0,0,0,0,0,0,0,0,0,0,0,0,0,0,0,0,0,0,0,0,0,0,0,0,0,0,0,0,0,0,0,0,0,0,0,0,0,0,0,0,0,0,0,0,5037,5038,
4811,4812,3936,3937,3938,3939,4085,4086,4087,3939,4087,3939,4087,3939,4013,4085,4086,4087,3939,4086,4087,3939,4086,4087,3938,3939,3938,3939,4087,3938,3939,4013,4086,4087,4013,4087,3938,3939,3939,4087,4085,4086,4087,4087,3939,3940,3871,3872,3872,3946,4164,4165,3871,3872,3871,3872,3935,3936,3937,0,4010,4011,4012,4013,0,0,0,0,0,0,0,0,0,0,0,0,0,0,0,0,0,0,0,0,0,0,0,0,0,0,0,0,0,0,0,0,0,0,0,0,0,0,0,0,0,0,0,0,0,0,0,0,0,0,0,0,0,0,5037,5038,
4811,4812,3936,3936,3937,3938,3939,4086,4087,3939,4087,3939,4087,3939,4087,4085,4086,4087,3939,4086,4087,3939,4086,4087,3938,3939,3938,3939,3937,3938,3939,4087,4085,4086,4087,4087,3938,3939,3936,3937,3938,3939,4087,4087,3939,3940,3871,3872,3946,3946,3871,3945,3871,3872,3871,3872,3935,3936,3937,0,0,0,0,0,0,0,0,0,0,0,0,0,0,0,0,0,0,0,0,0,0,0,0,0,0,0,0,0,0,0,0,0,0,0,0,0,0,0,0,0,0,0,0,0,0,0,0,0,0,0,0,0,0,0,0,0,0,0,5037,5038,
4811,4812,3936,3936,3937,3938,3939,4086,4087,4013,4087,4013,4087,3938,3939,4085,4086,4087,3939,4086,4087,4013,4086,4087,3938,3939,3938,3939,3937,3938,3936,3937,3938,3939,4087,4087,3938,3936,3936,3937,3938,3939,4087,4087,3939,3940,3871,3872,3946,3872,4164,4165,3872,3872,3871,3872,3935,3936,3937,1365,1366,0,0,0,0,0,0,0,0,0,0,0,0,0,0,0,0,0,0,0,0,0,0,0,0,0,0,0,0,0,0,0,0,0,0,0,0,0,0,0,0,0,0,0,0,0,0,0,0,0,0,0,0,0,0,0,0,0,5037,5038,
4811,4812,3936,3936,3937,3938,3939,4086,4087,4087,4087,4087,4087,3938,3939,4085,4086,4087,3939,4086,4087,4087,4086,4087,3938,3939,3939,3939,3937,3936,3936,3937,3938,3939,4087,4087,3936,4010,3936,3937,3938,3939,4087,4087,3939,3940,3871,3872,3945,3946,3872,3871,3872,3946,3871,3872,3935,3936,3937,1439,1440,0,0,0,0,0,0,0,0,0,0,0,0,0,0,0,0,0,0,0,0,0,0,0,0,0,0,0,0,0,0,0,0,0,0,0,0,0,0,0,0,0,0,0,0,0,0,0,0,0,0,0,0,0,0,0,0,0,5037,5038,
4811,4812,3936,3936,3937,3938,3939,4086,4087,4086,4087,4086,4087,3938,3939,4085,4086,4087,3939,4086,4087,4085,4086,4087,3938,3939,4013,3938,3939,4010,3936,3937,3938,3939,4087,4087,3939,4084,3936,3936,3937,3938,3939,4087,3939,3940,3871,3871,3872,3946,4164,4165,3872,3946,3871,3872,3935,3936,3937,1439,1440,0,0,0,0,0,0,0,0,0,0,0,0,0,0,0,0,0,0,0,0,0,0,0,0,0,0,0,0,0,0,0,0,0,0,0,0,0,0,0,0,0,0,0,0,0,0,0,0,0,0,0,0,0,0,0,0,0,5037,5038,
4811,4812,3936,3936,3937,3936,3936,3937,3938,3939,4085,4086,4087,3938,3939,4085,4086,4087,3939,4086,4087,3939,4086,4087,3938,3939,4087,3938,3939,4084,3936,3937,3938,3939,4087,4087,4013,3939,4010,3936,3937,3938,3939,3938,3939,3940,3871,3871,3872,3945,3946,3871,3872,3946,3872,3872,3935,3936,3937,1439,1440,0,0,0,0,0,0,0,0,0,0,0,0,0,0,0,0,0,0,0,0,0,0,0,0,0,0,0,0,0,0,0,0,0,0,0,0,0,0,0,0,0,0,0,0,0,0,0,0,0,0,0,0,0,0,0,0,0,5037,5038,
4885,4886,4010,3936,3937,4010,3936,3937,3938,3939,4085,4086,4087,3938,3939,4085,4086,4087,3939,4086,4087,4013,4086,4087,3939,3939,4087,3939,3938,3939,3937,3938,3939,3939,4085,4086,4087,3939,3939,3938,3939,3936,3937,3938,3939,4014,3871,3871,3872,3945,4164,4165,3872,3946,3946,3872,3935,3936,3937,1439,1440,0,0,0,0,0,0,0,0,0,0,0,0,0,0,0,0,0,0,0,0,0,0,0,0,0,0,0,0,0,0,0,0,0,0,0,0,0,0,0,0,0,0,0,0,0,0,0,0,0,0,0,0,0,0,0,0,0,5037,5038,
4811,4812,4084,3936,3936,4084,3936,3936,3937,3938,3939,4086,4087,3939,3939,4085,4086,4087,3939,4086,4087,4087,4086,4087,4013,3939,4087,4013,3938,3939,3936,3937,3938,3939,4085,4086,4087,3939,4013,3939,3939,3939,3938,3939,3939,4088,3871,3871,3872,3871,3872,3946,3872,3945,3946,3872,3935,3936,3937,1439,1440,0,0,0,0,0,0,0,0,1403,1404,0,0,0,0,0,4767,4768,0,0,0,0,0,0,0,0,0,0,0,0,0,0,0,0,0,0,0,0,0,0,0,0,0,0,0,0,0,0,0,0,0,0,0,0,0,0,0,0,5037,5038,
4811,4812,4084,3936,4010,4084,4010,3936,3937,3938,3939,4086,4087,4013,3939,4085,4086,4087,3939,4085,4086,4087,4086,4087,4087,3939,4087,4087,3939,3939,3936,3937,3938,3939,4085,4086,4087,3939,4087,3939,4013,4013,3939,3939,3939,4088,3871,3871,3871,3871,4164,4165,3872,3945,3946,3872,3935,3936,3937,1439,1440,0,0,0,0,0,0,0,0,1477,1478,0,0,0,0,0,4841,4842,0,0,0,0,0,0,0,0,0,0,0,0,0,0,0,0,0,0,0,0,0,0,0,0,0,0,0,0,0,0,0,0,0,0,0,0,0,0,0,0,5037,5038,
4811,4812,3936,3936,3937,3938,3939,3939,3939,3939,3939,4086,4087,4087,3939,4085,4086,4087,4013,4085,4086,4087,4085,4086,4087,4013,4086,4087,4013,3939,3936,3937,3938,3939,4085,4086,4087,3939,4087,4013,4087,4087,4013,4013,3939,4088,3871,3945,3945,3871,3871,3871,3872,3945,3946,3946,3935,3936,3937,1513,1514,0,0,0,0,0,0,0,0,1551,1552,0,0,0,0,0,4915,4916,4916,4916,4916,4916,4916,4761,4762,0,0,0,0,0,0,0,0,0,0,0,0,0,0,0,0,0,0,0,0,0,0,0,0,0,0,0,0,0,0,0,0,0,5037,5038,
4885,4886,4010,4010,4011,4012,4013,4013,4013,4013,4013,4085,4086,4087,4013,4085,4086,4087,4087,4085,4086,4087,4085,4086,4087,4087,4086,4087,4087,4013,4010,4011,4012,4013,4085,4086,4087,4013,4087,4087,4087,4087,4087,4087,4013,4088,3945,3945,3946,3945,4164,4165,3946,3945,3945,3946,3935,3936,3937,1587,1588,0,0,0,0,0,0,0,0,1625,1626,0,0,0,0,0,4989,4990,4990,4990,4990,4990,4990,4835,4836,0,0,0,0,0,0,0,0,0,0,0,0,0,0,0,0,0,0,0,0,0,0,0,0,0,0,0,0,0,0,0,0,0,5037,5038,
5033,5034,5034,5034,5034,5034,5034,5034,5034,5034,5034,5034,5034,5034,5034,5034,5034,5034,5034,5034,5034,5034,5034,5034,5034,5034,5034,5034,5034,5034,5034,5034,5034,5034,5034,5034,5034,5035,5036,5037,5037,5037,5037,5037,5037,5037,5037,5037,5034,5034,5034,5034,5034,5035,5034,5034,5034,5034,5034,5034,5034,5034,5034,5034,5034,5034,5034,5035,5035,5035,5035,5035,5035,5035,5035,5035,5035,5035,5034,5035,5034,5035,5036,4907,4908,5034,5035,5036,5034,5035,5035,5035,5035,5035,5035,5035,5035,5035,5035,5035,5035,5035,5035,5035,5035,5035,5035,5035,5035,5035,5035,5035,5035,5035,5035,5035,5035,5035,5037,5038,
5107,5108,5108,5108,5108,5108,5108,5108,5108,5108,5108,5108,5108,5108,5108,5108,5108,5108,5108,5108,5108,5108,5108,5108,5108,5108,5108,5108,5108,5108,5108,5108,5108,5108,5108,5108,5108,5109,5110,5111,5111,5111,5111,5111,5111,5111,5111,5111,5108,5108,5108,5108,5108,5109,5108,5108,5108,5108,5108,5108,5108,5108,5108,5108,5108,5108,5108,5109,5109,5109,5109,5109,5109,5109,5109,5109,5109,5109,5108,5109,5108,5109,5110,4981,4982,5108,5109,5110,5108,5109,5109,5109,5109,5109,5109,5109,5109,5109,5109,5109,5109,5109,5109,5109,5109,5109,5109,5109,5109,5109,5109,5109,5109,5109,5109,5109,5109,5109,5111,5112
</data>
 </layer>
 <layer id="2" name="Tile Layer 2" width="120" height="68" opacity="0">
  <data encoding="csv">
4737,4738,4738,4739,4740,4741,4741,4741,4741,4815,4815,4815,4741,4741,4741,4741,4741,4741,4741,4741,4741,4741,4741,4741,4741,4741,4741,4741,4741,4741,4741,4741,4741,4741,4741,4741,4741,4741,4741,4741,4741,4741,4741,4741,4741,4741,4741,4741,4741,4741,4741,4741,4741,4741,4741,4741,4741,4741,4741,4741,4741,4741,4741,4741,4741,4741,4741,4741,4741,4741,4741,4741,4741,4741,4741,4741,4741,4741,4741,4741,4741,4741,4741,4741,4741,4741,4741,4741,4741,4741,4741,4741,4741,4741,4741,4741,4741,4741,4741,4741,4741,4741,4741,4741,4741,4741,4741,4741,4741,4741,4741,4741,4741,4741,4741,4741,4741,4741,4741,4742,
4811,4812,4812,4813,4814,4815,4815,4815,4815,4813,4814,4815,4815,4815,4815,4815,4815,4815,4815,4815,4815,4815,4815,4815,4815,4815,4815,4815,4815,4815,4815,4815,4815,4815,4815,4815,4815,4815,4815,4815,4815,4815,4815,4815,4815,4815,4815,4815,4815,4815,4815,4815,4815,4815,4815,4815,4815,4815,4815,4815,4815,4815,4815,4815,4815,4815,4815,4815,4815,4815,4815,4815,4815,4815,4815,4815,4815,4815,4815,4815,4815,4815,4815,4815,4815,4815,4815,4815,4815,4815,4815,4815,4815,4815,4815,4815,4815,4815,4815,4815,4815,4815,4815,4815,4815,4815,4815,4815,4815,4815,4815,4815,4815,4815,4815,4815,4815,4815,4815,4816,
4811,4812,0,0,0,0,0,0,0,0,0,0,0,0,0,0,0,0,0,0,1053,1054,1055,1055,1055,1055,1055,1055,1054,1055,1055,1055,1055,1055,1055,1055,1055,1055,1055,1055,1055,1055,1055,1360,3937,3938,0,0,0,0,0,0,0,0,0,0,0,0,0,0,0,0,0,0,0,0,0,0,3940,3871,3871,3871,3871,3871,3871,3871,3871,3871,3872,3871,3872,3872,3871,3872,3872,3872,3872,3872,3872,3872,3872,3872,3872,3872,3872,3872,3872,3871,3871,3871,3871,3871,3872,3871,3872,0,0,0,0,0,0,0,0,0,0,0,0,0,4815,4816,
4811,4812,0,0,0,0,0,0,0,0,0,0,0,0,0,0,0,0,0,0,1127,1128,1128,1128,1128,1128,1128,1128,1128,1128,1128,1128,1128,1128,1128,1128,1128,1128,1128,1128,1128,1128,1128,1434,3937,3938,0,0,0,0,0,0,0,0,0,0,0,0,0,0,0,0,0,0,0,0,0,0,3940,3945,3945,3945,3871,3945,3871,3945,3945,3871,3872,3871,3871,3872,3871,3872,3946,3946,3946,3871,3871,3872,3946,3946,3946,3871,3871,3871,3871,3945,3945,3945,3945,3945,3946,3872,3872,0,0,0,0,0,0,0,0,0,0,0,0,0,4889,4890,
4811,4812,0,0,0,0,0,0,0,0,0,0,0,0,0,0,0,0,0,0,1127,1128,1128,1128,1128,1128,1128,1128,1128,1128,1128,1128,1128,1128,1128,1128,1128,1128,1128,1128,1128,1128,1128,1434,3937,3938,0,0,0,0,0,0,0,0,0,0,0,0,0,0,0,0,0,0,0,0,0,0,3940,3945,3946,3946,3871,3945,3871,3871,3872,3871,3871,3945,3871,3871,3871,3872,3871,3871,3871,3871,3871,3871,3871,3871,3871,3871,3871,3871,3871,3871,3945,3946,3946,3946,3946,3946,3946,0,0,0,0,0,0,0,0,0,0,0,0,0,4963,4964,
4811,4812,1,2,2,2,2,2,2,2,2,2,2,2,2,2,2,2,2,0,1201,1202,1202,1202,1202,1202,1202,1202,1202,1202,1202,1202,1202,1202,1202,1202,1202,1202,1202,1202,1202,1202,1202,1434,3937,3938,0,0,0,0,0,0,0,0,0,0,0,0,0,0,0,0,0,0,0,0,0,0,3940,3871,3872,3871,3945,3871,3945,3871,3872,3945,3945,3871,3871,3945,3871,3871,3945,3871,3871,3945,3871,3871,3945,3871,3945,3945,3945,3945,3871,3871,3871,3871,3871,3871,3945,3945,3946,3872,0,0,0,0,0,0,0,0,0,0,0,0,5037,5038,
4811,4812,38,0,7,7,7,7,7,7,7,7,7,0,0,7,7,7,0,0,1275,1276,1276,1276,1276,1276,1276,1276,1276,1276,1276,1276,1276,1276,1276,1276,1276,1276,1276,1276,1276,1276,1276,1582,3937,3938,0,0,0,0,0,0,0,0,0,0,0,0,0,0,0,0,0,0,0,0,0,0,3940,3871,3872,3871,3945,3871,3871,3871,3872,3945,3945,3945,3945,3945,3945,3945,3945,3945,3945,3945,3945,3945,3945,3945,3945,3946,3946,3946,3945,3945,3945,3945,3945,3945,3945,3945,3946,3946,0,0,0,0,0,0,0,0,0,0,0,0,5037,5038,
4811,4812,38,39,7,7,7,7,7,7,7,7,7,7,7,7,7,7,39,0,2401,2402,2403,2404,2405,2406,2401,2402,2403,2404,2405,2406,2401,2402,2403,2404,2405,2406,2401,2402,2403,2404,2405,2406,3937,3938,0,0,0,0,0,0,0,0,0,0,0,0,0,0,0,0,0,0,0,0,0,0,3940,3871,3872,3945,3945,3871,3945,3871,3871,3945,3946,0,0,0,0,0,0,0,0,0,0,0,0,0,0,0,0,0,0,0,0,0,0,0,0,0,0,0,0,0,0,0,0,0,0,0,0,0,0,0,5037,5038,
4811,4812,38,39,7,7,7,7,7,7,7,7,7,7,7,7,7,39,39,0,2475,2476,2477,2478,2479,2480,2475,2476,2477,2478,2479,2480,2475,2476,2477,2478,2479,2480,2475,2476,2477,2478,2479,2480,3937,3938,0,0,0,0,0,0,0,0,0,0,0,0,0,0,0,0,0,0,0,0,0,0,3940,3871,3872,3946,3871,3945,3945,3871,3871,3945,3946,0,0,0,0,0,0,0,0,0,0,0,0,0,0,0,0,0,0,0,0,0,0,0,0,0,0,0,0,0,0,0,0,0,0,0,0,0,0,0,5037,5038,
4811,4812,38,39,7,7,7,7,7,7,7,7,7,7,7,7,7,0,39,0,2549,2550,2551,2552,2553,2554,2549,2550,2551,2552,2553,2554,2549,2550,2551,2552,2553,2554,2549,2550,2551,2552,2553,2554,3937,3938,0,0,0,0,0,0,0,0,0,0,0,0,0,0,0,0,0,0,0,0,0,0,3940,3871,3872,3946,3871,3945,3946,3871,3945,3945,3946,0,0,0,0,0,0,0,0,0,0,0,0,0,0,0,0,0,0,0,0,0,0,0,0,0,0,0,0,0,0,0,0,0,0,0,0,0,0,0,5037,5038,
4811,4812,38,39,7,7,7,7,7,7,7,7,7,39,7,7,7,7,39,0,2401,2402,2403,2404,2405,2406,2401,2402,2403,2404,2405,2406,2401,2402,2403,2404,2405,2406,2401,2402,2403,2404,2405,2406,3937,3938,0,0,0,0,0,0,0,0,0,0,0,0,0,0,0,0,0,0,0,0,0,0,3940,3871,3872,3946,3871,3871,3871,3871,3945,3945,3946,0,0,0,0,0,0,0,0,0,0,0,0,0,0,0,0,0,0,0,0,0,0,0,0,0,0,0,0,0,0,0,0,0,0,0,0,0,0,0,5037,5038,
4811,4812,38,39,7,7,0,7,7,0,7,0,7,7,7,7,7,7,39,0,2475,2476,2477,2478,2479,2480,2475,2476,2477,2478,2479,2480,2475,2476,2477,2478,2479,2480,2475,2476,2477,2478,2479,2480,3937,3938,0,0,0,0,0,0,0,0,0,0,0,0,0,0,0,0,0,0,0,0,0,0,3940,3871,3872,3871,3871,3945,3871,3945,3945,3945,3946,0,0,0,0,0,0,0,0,0,0,0,0,0,0,0,0,0,0,0,0,0,0,0,0,0,0,0,0,0,0,0,0,0,0,0,0,0,0,0,5037,5038,
4811,4812,38,39,7,0,0,0,0,0,0,0,7,7,0,0,0,0,39,0,2549,2550,2551,2552,2553,2554,2549,2550,2551,2552,2553,2554,2549,2550,2551,2552,2553,2554,2549,2550,2551,2552,2553,2554,3937,3938,0,0,0,0,0,0,0,0,0,0,0,0,0,0,0,0,0,0,0,0,0,0,3940,3871,3872,3945,3871,3945,3871,3871,3871,3945,3946,0,0,0,0,0,0,0,0,0,0,0,0,0,0,0,0,0,0,0,0,0,0,0,0,0,0,0,0,0,0,0,0,0,0,0,0,0,0,0,5037,5038,
4811,4812,38,39,39,39,39,39,39,39,39,39,39,39,39,39,39,39,39,0,2401,2402,2403,2404,2405,2406,2401,2402,2403,2404,2405,2406,2401,2402,2403,2404,2405,2406,2401,2402,2403,2404,2405,2406,3937,3938,0,0,0,0,0,0,0,0,0,0,0,0,0,0,0,0,0,0,0,0,0,0,3940,3871,3871,3945,3871,3945,3871,3945,3871,3871,3872,0,0,0,0,0,0,0,0,0,0,0,0,0,0,0,0,0,0,0,0,0,0,0,0,0,0,0,0,0,0,0,0,0,0,0,0,0,0,0,5037,5038,
4811,4812,0,0,0,0,0,0,0,0,0,0,0,0,0,0,0,0,0,0,2475,2476,2477,2478,2479,2480,2475,2476,2477,2478,2479,2480,2475,2476,2477,2478,2479,2480,2475,2476,2477,2478,2479,2480,3937,3938,0,0,0,0,0,0,0,0,0,0,0,0,0,0,0,0,0,0,0,0,0,0,3940,3871,3945,3945,3871,3872,3871,3945,3945,3871,3872,0,0,0,0,0,0,0,0,0,0,0,0,0,0,0,0,0,0,0,0,0,0,0,0,0,0,0,0,0,0,0,0,0,0,0,0,0,0,0,5037,5038,
4811,4812,188,188,188,188,188,188,188,188,188,188,188,188,188,188,188,188,189,0,2549,2550,2551,2552,2553,2554,2549,2550,2551,2552,2553,2554,2549,2550,2551,2552,2553,2554,2549,2550,2551,2552,2553,2554,3937,3938,0,0,0,0,0,0,0,0,0,0,0,0,0,0,0,0,0,0,0,0,0,0,3940,3871,3945,3946,3871,3872,3871,3945,3871,3872,3872,0,0,0,0,0,0,0,0,0,0,0,0,0,0,0,0,0,0,0,0,0,0,0,0,0,0,0,0,0,0,0,0,0,0,0,0,0,0,0,5037,5038,
4811,4812,225,225,225,225,225,225,225,225,225,225,225,225,225,225,225,225,226,0,2401,2402,2403,2404,2405,2406,2401,2402,2403,2404,2405,2406,2401,2402,2403,2404,2405,2406,2401,2402,2403,2404,2405,2406,3937,3938,0,0,0,0,0,0,0,0,0,0,0,0,0,0,0,0,0,0,0,0,0,0,3940,3945,3945,3946,3871,3872,3871,3945,3945,3946,3946,0,0,0,0,0,0,0,0,0,0,0,0,0,0,0,0,0,0,0,0,0,0,0,0,0,0,0,0,0,0,0,0,0,0,0,0,0,0,0,5037,5038,
4811,4812,1781,1781,1781,1781,1781,1781,1781,1781,1781,1781,1781,1781,1781,1781,0,0,0,0,2475,2476,2477,2478,2479,2480,2475,2476,2477,2478,2479,2480,2475,2476,2477,2478,2479,2480,2475,2476,2477,2478,2479,2480,3937,3938,0,0,0,0,0,0,0,0,0,0,0,0,0,0,0,0,0,0,0,0,0,0,3940,3945,3946,3872,3871,3872,3945,3945,3946,3945,3946,0,0,0,0,0,0,0,0,0,0,0,0,0,0,0,0,0,0,0,0,0,0,0,0,0,0,0,0,0,0,0,0,0,0,0,0,0,0,0,5037,5038,
4811,4812,2079,1781,1782,2078,2079,2079,1781,1782,2078,2079,2078,2079,1781,1782,189,189,189,0,2549,2550,2551,2552,2553,2554,2549,2550,2551,2552,2553,2554,2549,2550,2551,2552,2553,2554,2549,2550,2551,2552,2553,2554,3937,3938,0,0,0,0,0,0,0,0,0,0,0,0,0,0,0,0,0,0,0,0,0,0,3940,3945,3946,3872,3871,3872,3945,3946,3945,3946,3872,0,0,0,0,0,0,0,0,0,0,0,0,0,0,0,0,0,0,0,0,0,0,0,0,0,0,0,0,0,0,0,0,0,0,0,0,0,0,0,5037,5038,
4811,4812,2153,1855,1856,2152,2153,2153,1855,1856,2152,2153,2152,2153,1855,1856,262,262,263,0,2401,2402,2403,2404,2405,2406,2401,2402,2403,2404,2405,2406,2401,2402,2403,2404,2405,2406,2401,2402,2403,2404,2405,2406,3937,3938,0,0,0,0,0,0,0,0,0,0,0,0,0,0,0,0,0,0,0,0,0,0,3940,3945,3946,3872,3871,3872,3871,3872,3945,3946,3872,0,0,0,0,0,0,0,0,0,0,0,0,0,0,0,0,0,0,0,0,0,0,0,0,0,0,0,0,0,0,0,0,0,0,0,0,0,0,0,5037,5038,
4811,4812,0,0,1781,1781,1781,1781,1782,1781,1781,1781,1781,1782,1781,1781,1781,1781,1782,1784,2475,2476,2477,2478,2479,2480,2475,2476,2477,2478,2479,2480,2475,2476,2477,2478,2479,2480,2475,2476,2477,2478,2479,2480,3937,3938,0,0,0,0,0,0,0,0,0,0,0,0,0,0,0,0,0,0,0,0,0,0,3940,3945,3946,3946,3871,3872,3871,3872,3945,3945,3946,0,0,0,0,0,0,0,0,0,0,0,0,0,0,0,0,0,0,0,0,0,0,0,0,0,0,0,0,0,0,0,0,0,0,0,0,0,0,0,5037,5038,
4811,4812,188,0,1781,1781,1855,1781,1781,1781,1855,1855,1781,1781,1781,1781,1781,1781,1782,1784,2549,2550,2551,2552,2553,2554,2549,2550,2551,2552,2553,2554,2549,2550,2551,2552,2553,2554,2549,2550,2551,2552,2553,2554,3937,3938,0,0,0,0,0,0,0,0,0,0,0,0,0,0,0,0,0,0,0,0,0,0,3940,3945,3946,3945,3871,3872,3871,3872,3945,3945,3946,0,0,0,0,0,0,0,0,0,0,0,0,0,0,0,0,0,0,0,0,0,0,0,0,0,0,0,0,0,0,0,0,0,0,0,0,0,0,0,5037,5038,
4811,4812,188,188,1855,1855,1855,1855,1855,1855,1855,1855,1855,1855,1855,1855,1855,1855,1856,1858,2401,2402,2403,2404,2405,2406,2401,2402,2403,2404,2405,2406,2401,2402,2403,2404,2405,2406,2401,2402,2403,2404,2405,2406,3937,3938,0,0,0,0,0,0,0,0,0,0,0,0,0,0,0,0,0,0,0,0,0,0,3940,3871,3945,3945,3871,3871,3871,3872,3945,3946,3946,0,0,0,0,0,0,0,0,0,0,0,0,0,0,0,0,0,0,0,0,0,0,0,0,0,0,0,0,0,0,0,0,0,0,0,0,0,0,0,5037,5038,
4811,4812,0,0,0,0,0,0,0,0,0,0,0,188,188,188,188,1782,1783,1784,2475,2476,2477,2478,2479,2480,2475,2476,2477,2478,2479,2480,2475,2476,2477,2478,2479,2480,2475,2476,2477,2478,2479,2480,3937,3938,0,0,0,0,0,0,0,0,0,0,0,0,0,0,0,0,0,0,0,0,0,0,3940,3871,3945,3946,3945,3871,3871,3872,3945,3946,3946,0,0,0,0,0,0,0,0,0,0,0,0,0,0,0,0,0,0,0,0,0,0,0,0,0,0,0,0,0,0,0,0,0,0,0,0,0,0,0,5037,5038,
4811,4812,188,188,188,188,188,188,188,188,188,188,188,188,188,188,1781,1782,1783,1784,2549,2550,2551,2552,2553,2554,2549,2550,2551,2552,2553,2554,2549,2550,2551,2552,2553,2554,2549,2550,2551,2552,2553,2554,3937,3938,0,0,0,0,0,0,0,0,0,0,0,0,0,0,0,0,0,0,0,0,0,0,3940,3871,3945,3946,3945,3871,3871,3871,3871,3945,3946,0,0,0,0,0,0,0,0,0,0,0,0,0,0,0,0,0,0,0,0,0,0,0,0,0,0,0,0,0,0,0,0,0,0,0,0,0,0,0,5037,5038,
4811,4812,2224,2224,2225,2226,2227,1781,1782,2224,2225,2226,2227,1781,1782,0,2225,2226,2227,2228,2401,2402,2403,2404,2405,2406,2401,2402,2403,2404,2405,2406,2401,2402,2403,2404,2405,2406,2401,2402,2403,2404,2405,2406,3937,3938,0,0,0,0,0,0,0,0,0,0,0,0,0,0,0,0,0,0,0,0,0,0,3940,3871,3945,3946,3945,3871,3871,3945,3945,3945,3946,0,0,0,0,0,0,0,0,0,0,0,0,0,0,0,0,0,0,0,0,0,0,0,0,0,0,0,0,0,0,0,0,0,0,0,0,0,0,0,5037,5038,
4811,4812,2298,2298,2299,2300,2301,1855,1856,2298,2299,2300,2301,1855,1856,299,2299,2300,2301,2302,2475,2476,2477,2478,2479,2480,2475,2476,2477,2478,2479,2480,2475,2476,2477,2478,2479,2480,2475,2476,2477,2478,2479,2480,3937,3938,0,0,0,0,0,0,0,0,0,0,0,0,0,0,0,0,0,0,0,0,0,0,3940,3871,3945,3946,3945,3871,3945,3945,3945,3946,3872,0,0,0,0,0,0,0,0,0,0,0,0,0,0,0,0,0,0,0,0,0,0,0,0,0,0,0,0,0,0,0,0,0,0,0,0,0,0,0,5037,5038,
4811,4812,3923,3924,3924,3925,3926,3927,3849,3924,3924,3925,3926,3927,3849,3850,3849,3850,3851,3852,2549,2550,2551,2552,2553,2554,2549,2550,2551,2552,2553,2554,2549,2550,2551,2552,2553,2554,2549,2550,2551,2552,2553,2554,3937,3938,3938,3938,3937,3938,3937,3938,3936,3936,3936,3936,3937,3936,3937,3938,0,0,0,0,0,0,0,0,3940,3945,3945,3946,3945,3871,3871,3945,3945,3946,3946,0,0,0,0,0,0,0,0,0,0,0,0,0,0,0,0,0,0,0,0,0,0,0,0,0,0,0,0,0,0,0,0,0,0,0,0,0,0,0,5037,5038,
4811,4812,3923,3998,3924,3924,3924,3924,3924,3998,3998,3999,4000,4001,3924,3924,3924,3925,3926,3927,2401,2550,2551,2551,2551,2554,2549,2550,2550,2550,2551,2554,2549,2550,2551,2551,2551,2554,2549,2550,2550,2550,2551,2554,4011,4012,3937,3937,3937,3937,4011,4012,4010,4010,4010,3936,3937,3936,3937,3938,3936,3937,3936,3936,3936,3937,3938,0,3940,3945,3946,3945,3946,3871,3871,3945,3945,3945,3946,0,0,0,0,0,0,0,0,0,0,0,0,0,0,0,0,0,0,0,0,0,0,0,0,0,0,0,0,0,0,0,0,0,0,0,0,0,0,0,4889,4890,
4811,4812,3923,3925,3926,3927,3927,3927,3927,3927,3927,3927,3927,3924,3924,3924,3925,3926,3927,4001,2549,2550,2551,2551,2551,2554,2549,2550,2550,2550,2551,2554,2549,2550,2551,2551,2551,2554,2549,2550,2550,2551,2551,2554,4085,4086,4011,4011,4011,4011,4085,4086,3936,4010,4011,3936,3937,3936,3937,3938,4010,4011,4010,4010,3936,3937,3938,3938,3940,3945,3871,3945,3946,3871,3871,3945,3945,3945,3946,0,0,0,0,0,0,0,0,0,0,0,0,0,0,0,0,0,0,0,0,0,0,0,0,0,0,0,0,0,0,0,0,0,0,0,0,0,0,0,4963,4964,
4885,4886,3997,3924,3924,3924,3924,3924,3924,3924,3924,3924,3924,3998,3998,3924,3924,3925,3926,3927,2623,2624,2625,2626,2624,2625,2624,2625,2626,2624,2625,2626,2624,2625,2626,2627,2624,2625,2624,2624,2625,2626,2627,2628,4085,3936,3937,3938,3936,3936,3936,3937,4010,4010,4011,3936,3937,3936,3937,3938,4010,4011,4010,4011,3936,3937,3938,4012,3940,3945,3871,3945,3946,3871,3871,3872,3945,3946,3872,0,0,0,0,0,0,0,0,0,0,0,0,0,0,0,0,0,0,0,0,0,0,0,0,0,0,0,0,0,0,0,0,0,0,0,0,0,0,0,5037,5038,
4959,4960,4071,3998,3998,3999,3999,3999,3999,3999,3999,3999,3999,3999,3999,3999,3999,3999,4000,4001,3999,3999,4000,3999,4000,3999,3999,3999,4000,3999,4000,3999,3999,3999,3999,4000,3999,4000,3999,3999,4000,4000,3999,4000,3936,3937,3938,3936,4010,3936,3936,3937,4010,4011,4012,3936,3937,3936,3937,3936,4010,4011,4010,4011,3936,3937,3938,0,3940,3945,3871,3945,3946,3871,3871,3872,3945,3946,3946,0,0,0,0,0,0,0,0,0,0,0,0,0,0,0,0,0,0,0,0,0,0,0,0,0,0,0,0,0,0,0,0,0,0,0,0,0,0,0,5037,5038,
5033,5034,3935,3937,3936,3936,3937,3938,3937,3938,3936,3937,3938,3936,3936,3936,3937,3938,3938,3939,3999,4000,3999,3999,3999,4073,4073,3999,3999,4000,3999,4000,3999,4073,3999,3999,3999,3999,4073,3999,4000,3999,3999,4000,3936,3937,3938,4010,4010,4010,3936,3937,4010,4011,4012,3936,3937,3936,3936,4010,4010,4011,4012,4010,3936,3937,3938,0,3940,3945,3945,3945,3946,3871,3871,3871,3945,3946,3946,0,0,0,0,0,0,0,0,0,0,0,0,0,0,0,0,0,0,0,0,0,0,0,0,0,0,0,0,0,0,0,0,0,0,0,0,0,0,0,5037,5038,
4811,4812,3935,3936,4010,3936,3936,3936,3936,3936,3936,3936,3936,3936,3936,3936,3936,3937,3938,3939,3999,3999,4073,4073,3999,4073,4073,3999,4000,4000,3999,3999,3999,4073,3999,3999,3999,3999,4000,4000,4000,4073,3999,4000,3936,3937,3938,4010,4010,4011,3936,3936,4010,4011,3936,3937,3938,4010,3936,4010,4011,4012,0,0,4010,4011,4012,0,3940,3945,3946,3946,3872,3871,3871,3871,3945,3946,3946,0,0,0,0,0,0,0,0,0,0,0,0,0,0,0,0,0,0,0,0,0,0,0,0,0,0,0,0,0,0,0,0,0,0,0,0,0,0,0,5037,5038,
4885,4886,3935,3936,3937,4010,4010,4010,4010,4010,4010,4010,4010,4010,4010,4010,4010,4011,4012,3939,4073,4073,4073,4073,4073,4073,4073,3999,3999,3999,4073,3999,4073,3999,3999,4073,4073,3999,3999,3999,3999,4073,4073,4074,3936,3936,3936,4010,4010,4011,3936,4010,4010,4011,4010,4011,4012,3938,3936,4010,4011,4012,0,0,0,0,0,0,3940,3871,3945,3946,3946,3945,3871,3871,3945,3946,3872,0,0,0,0,0,0,0,0,0,0,0,0,0,0,0,0,0,0,0,0,0,0,0,0,0,0,0,0,0,0,0,0,0,0,0,0,0,0,0,5037,5038,
4959,4960,4009,4306,4307,4010,4011,4012,4307,4307,4307,4307,4307,4307,4307,4012,4013,4013,4013,4013,4073,4073,4074,4073,4073,4073,4074,4073,4073,4073,4073,4073,4073,4073,4073,4073,4074,4073,4073,4073,4073,4073,4073,4074,4010,4010,4010,4010,4011,4012,4010,4010,4011,4012,4010,4011,4012,4012,4010,4010,4011,4012,0,0,0,0,0,0,4014,3945,3945,3946,3946,3946,3871,3871,3945,3946,3872,0,0,0,0,0,0,0,0,0,0,0,0,0,0,0,0,0,0,0,0,0,0,0,0,0,0,0,0,0,0,0,0,0,0,0,0,0,0,0,5037,5038,
4811,4812,4379,4382,4381,4381,4381,4381,4381,4381,4381,4381,4382,4382,4382,4382,4382,4382,4382,4382,4382,4382,4382,4382,4382,4382,4382,4382,4382,4382,4381,4381,4381,4381,4381,4381,4381,4381,4381,4381,4381,4381,4381,4381,4381,4381,4381,4381,4381,4382,0,0,0,0,0,0,0,0,0,0,0,0,0,0,0,0,0,0,0,3945,3946,3946,3946,3946,3871,3871,3945,3946,3946,0,0,0,0,0,0,0,0,0,0,0,0,0,0,0,0,0,0,0,0,0,0,0,0,0,0,0,0,0,0,0,0,0,0,0,0,0,0,0,5037,5038,
4811,4812,3871,3871,3871,3871,3871,3871,3871,3871,3871,3871,3871,3871,3871,3871,3871,3871,3871,3871,3871,3871,3871,3871,3871,3871,3871,3871,3871,3871,3871,3871,3871,3871,3872,3871,3871,3871,3871,3871,3871,3871,3871,3871,3871,3872,3871,3872,3871,3871,3871,3871,3871,3871,3871,3871,3871,3871,3871,3871,3871,3871,4311,4312,4312,4312,3871,3871,3872,3871,3945,3946,3946,3946,3945,3871,3945,3945,3946,0,0,0,0,0,0,0,0,0,0,0,0,0,0,0,0,0,0,0,0,0,0,0,0,0,0,0,0,0,0,0,0,0,0,0,0,0,0,0,5037,5038,
4811,4812,3945,3945,3871,3871,3871,3871,3871,3871,3871,3871,3871,3871,3871,3871,3945,3945,3945,3945,3945,3945,3945,3945,3945,3945,3945,3871,3871,3871,3945,3945,3945,3871,3871,3945,3945,3945,3871,3945,3945,3945,3945,3871,3871,3871,3871,3871,3945,3945,3945,3945,3945,3945,3945,3871,3945,3945,3945,3871,3945,3945,4311,4311,4311,4312,3945,3871,3871,3871,3872,3945,3946,3946,3945,3871,3945,3946,3872,3872,0,0,0,0,0,0,0,0,0,0,0,0,0,0,0,0,0,0,0,0,0,0,0,0,0,0,0,0,0,0,0,0,0,0,0,0,0,0,5037,5038,
4885,4886,3871,3871,3945,3945,3945,3945,3945,3945,3945,3945,3945,3945,3945,3945,3945,3946,3872,3872,3872,3872,3871,3945,3945,3946,3872,3945,3945,3871,3871,3871,3945,3871,3871,3945,3871,3871,3871,3871,3871,3871,3871,3871,3945,3871,3945,3945,3945,3945,3945,3945,3871,3871,3871,3871,3871,3871,3871,3871,3945,3946,4311,4311,4311,4312,3871,3871,3871,3872,3872,3945,3945,3871,3945,3945,3945,3946,3872,3946,0,0,0,0,0,0,0,0,0,0,0,0,0,0,0,0,0,0,0,0,0,0,0,0,0,0,0,0,0,0,0,0,0,0,0,0,0,0,5037,5038,
4811,4812,3945,3945,3946,3946,3946,3946,3946,3946,3946,3946,3946,3946,3946,3946,3946,3871,3871,3871,3871,3871,3872,3945,3946,3946,3946,3945,3946,3945,3871,3871,3871,3872,3945,3871,3871,3871,3872,3871,3872,3945,3945,3945,3945,3945,3871,3872,3871,3872,3946,3946,3945,3871,3872,3871,3871,3872,3945,3945,3945,3946,4311,4311,4311,4312,3871,3871,3872,3872,3946,3945,3946,3945,3945,3946,3872,3946,3946,3946,0,0,0,0,0,0,0,0,0,0,0,0,0,0,0,0,0,0,0,0,0,0,0,0,0,0,0,0,0,0,0,0,0,0,0,0,0,0,5037,5038,
4885,4886,3867,3871,3867,3871,3867,3871,3867,3871,3867,3871,3867,3871,3867,3871,3867,3872,3867,3872,3867,3872,3867,3872,3867,3872,3867,3872,3867,3872,3867,3871,3867,3872,3867,3871,3867,3871,3867,3871,3867,3871,3867,3872,3867,3871,3867,3871,3867,3871,3867,3871,3867,3871,3867,3945,3867,3871,3867,3871,3867,3872,4311,4311,4311,4312,3871,3943,3871,3943,3871,3943,3946,3943,3945,3943,3871,3943,3872,3943,3871,3943,0,0,0,0,0,0,0,0,0,0,0,0,0,0,0,0,0,0,0,0,0,0,0,0,0,0,0,0,0,0,0,0,0,0,0,0,5037,5038,
4959,4960,3941,3872,3941,3872,3941,3872,3941,3872,3941,3872,3941,3872,3941,3872,3941,3872,3941,3946,3941,3871,3941,3946,3941,3946,3941,3946,3941,3871,3941,3871,3941,3871,3941,3871,3941,3872,3941,3871,3941,3872,3941,3872,3941,3871,3941,3945,3941,3871,3941,3945,3941,3871,3941,3945,3941,3871,3941,3871,3941,3872,4311,4311,4311,4312,3871,4017,3871,4017,3945,4017,3871,4017,3872,4017,3945,4017,3946,4017,3871,4017,0,0,0,0,0,0,0,0,0,0,0,0,0,0,0,0,0,0,0,0,0,0,0,0,0,0,0,0,0,0,0,0,0,0,0,0,5037,5038,
4811,4812,3871,3871,3871,3871,3871,3871,3872,3871,3871,3871,3872,3871,3871,3872,3872,3871,3871,3871,3871,3872,3871,3871,3871,3872,3872,3871,3871,3871,3871,3945,3871,3871,3945,3871,3871,3871,3871,3871,3871,3872,3871,3871,3871,3871,3871,3945,3871,3871,3871,3945,3871,3872,3945,3871,3872,3872,3872,3871,3872,3872,4311,4312,4312,4312,3871,3872,3871,3871,3945,3871,3872,3872,3946,3871,3871,3871,3945,3946,3871,3872,0,0,0,0,0,0,0,0,0,0,0,0,0,0,0,0,0,0,0,0,0,0,0,0,0,0,0,0,0,0,0,0,0,0,0,0,5037,5038,
4885,4886,3945,3945,3945,3945,3871,3871,3871,3871,3872,3871,3871,3871,3871,3872,3871,3871,3871,3872,3872,3871,3945,3871,3871,3871,3871,3871,3871,3871,3871,3945,3871,3871,3945,3945,3871,3945,3871,3871,3871,3871,3871,3945,3871,3871,3945,3945,3871,3871,3945,3945,3871,3871,3871,3872,3872,3946,3871,3945,3946,3946,4311,4312,4312,4312,3871,3871,3871,3871,3871,3871,3871,3871,3872,3872,3871,3945,3945,3946,3872,3872,0,0,0,0,0,0,0,0,0,0,0,0,0,0,0,0,0,0,0,0,0,0,0,0,0,0,0,0,0,0,0,0,0,0,0,0,5037,5038,
4811,4812,3945,3945,3945,3945,3945,3945,3945,3871,3871,3945,3945,3871,3871,3871,3945,3871,3871,3871,3871,3945,3945,3871,3945,3945,3945,3871,3945,3945,3945,3945,3871,3871,3945,3946,3945,3945,3871,3945,3871,3945,3871,3945,3871,3871,3945,3946,3871,3871,3945,3946,3871,3945,3871,3871,3871,3871,3945,3945,3945,3946,4311,4312,4312,4312,3871,3945,3945,3945,3871,3945,3945,3871,3871,3871,3945,3945,3946,3946,3871,3872,0,0,0,0,0,0,0,0,0,0,0,0,0,0,0,0,0,0,0,0,0,0,0,0,0,0,0,0,0,0,0,0,0,0,0,0,5037,5038,
4885,4886,3945,3945,3945,3946,3945,3946,3945,3945,3945,3945,3946,3945,3945,3945,3945,3945,3945,3945,3945,3945,3945,3945,3945,3946,3945,3945,3945,3945,3946,3945,3945,3945,3945,3946,3945,3946,3945,3945,3945,3945,3945,3945,3945,3945,3945,3946,3945,3945,3872,3872,3945,3945,3871,3945,3945,3945,3945,3946,3945,3946,4311,4312,4312,4312,3945,3945,3946,3945,3945,3945,3946,3945,3945,3945,3945,3946,3945,3946,3945,3946,0,0,0,0,0,0,0,0,0,0,0,0,0,0,0,0,0,0,0,0,0,0,0,0,0,0,0,0,0,0,0,0,0,0,0,0,5037,5038,
4811,4812,3862,3862,3862,3862,3862,3862,3862,3862,3862,3862,3862,3862,3862,3862,3862,3862,3862,3862,3863,3864,3865,3864,3865,3865,3865,3865,3865,3865,3865,3865,3865,3865,3865,3865,3865,3865,3865,3865,3865,3865,3865,3865,3865,3866,3872,3872,3872,3872,4164,4165,3871,3871,3872,3945,3861,3862,3862,3862,3863,3864,3865,3864,3865,3865,3864,3865,3865,3865,3865,3865,3865,3865,3862,3863,3864,3865,3865,3865,3865,0,0,0,0,0,0,0,0,0,0,0,0,0,0,0,0,0,0,0,0,0,0,0,0,0,0,0,0,0,0,0,0,0,0,0,0,0,5037,5038,
4811,4812,3936,3936,3937,3938,3939,3936,3936,3936,3936,3936,3936,3936,3936,3936,3937,3938,3939,3939,3936,3937,3938,3939,3936,3937,3938,3939,3939,3939,3939,3939,3939,3939,3936,3937,3938,3939,3939,3939,3939,3939,3939,3939,3939,3940,3871,3872,3872,3872,3871,3871,3871,3871,3871,3872,3935,3936,3936,3936,3937,3938,3939,3938,3939,3939,3938,3939,3939,3939,3939,3939,3939,3862,3863,3864,3865,3865,3939,3939,3939,3865,3865,3865,3865,3865,0,0,0,0,0,0,0,0,0,0,0,0,0,0,0,0,0,0,0,0,0,0,0,0,0,0,0,0,0,0,0,0,5037,5038,
4811,4812,3936,3937,3938,3939,3939,3937,3938,3939,3937,3938,3939,3937,3938,3939,3939,4012,4013,4013,3937,3938,3939,3939,3937,3938,3939,3939,3939,3936,3937,3938,3939,3939,3937,3938,3939,3939,4013,4013,4013,4013,3939,3939,3939,3940,3871,3871,3872,3871,4164,4165,3871,3871,3871,3872,3935,3936,4010,4010,4011,4012,4013,4012,4013,4013,4012,4013,4013,4013,4013,4013,4013,3862,3863,3864,3865,3939,4013,4013,4013,3939,3939,3939,3939,3939,3865,3865,3865,0,0,0,0,0,0,0,0,0,0,0,0,0,0,0,0,0,0,0,0,0,0,0,0,0,0,0,0,0,5037,5038,
4885,4886,3936,3937,3938,3939,3939,3939,3938,3939,3937,3938,3939,3938,3939,3939,4013,4086,4087,4087,3937,3938,3939,4013,3937,3938,3939,4013,4013,3937,3938,3939,3939,4013,3937,3938,3939,4013,4087,4087,4087,4087,4013,4013,4013,3940,3945,3871,3872,3945,3871,3945,3871,3871,3871,3872,3935,3936,3937,4010,4011,4012,4013,4011,4012,4013,4011,4012,4013,0,0,4010,3862,3863,3864,3865,3865,4013,4011,4012,4013,4013,4013,4013,4013,4013,3939,3939,3939,0,0,0,0,0,0,0,0,0,0,0,0,0,0,0,0,0,0,0,0,0,0,0,0,0,0,0,0,0,5037,5038,
4959,4960,3936,3937,3938,3939,4013,4013,3938,3939,3938,3939,3939,3938,3939,4013,4087,4085,4086,4087,3937,3938,3939,4087,3937,3938,3939,4087,4087,3937,3938,3939,4013,4087,3936,3937,3936,3937,3938,3939,3939,3939,4087,4087,4087,3940,3871,3872,3872,3871,4164,4165,3871,3871,3871,3872,3935,3936,3937,4010,4011,4012,4013,4011,4012,4013,4011,4012,4013,0,0,0,3936,3937,3938,3939,3939,4010,4010,4010,4010,4010,4010,4011,4012,4013,4013,4013,4013,0,0,0,0,0,0,0,0,0,0,0,0,0,0,0,0,0,0,0,0,0,0,0,0,0,0,0,0,0,5037,5038,
4811,4812,3936,3937,3938,3939,4087,4087,3939,3939,3939,3939,4013,3938,3939,4087,4087,4086,4087,4013,3939,3939,3939,4087,3937,3938,3939,4087,4087,3937,3938,3939,4087,4087,3939,3937,3936,3937,3938,3939,4013,4013,3939,4086,4087,3940,3871,3872,3871,3871,3871,3945,3945,3945,3871,3872,3935,3936,3937,4010,4011,4012,4013,4011,4012,4013,4011,4012,4013,0,0,0,4010,4011,4012,4013,4013,0,0,0,0,0,0,0,0,0,0,0,0,0,0,0,0,0,0,0,0,0,0,0,0,0,0,0,0,0,0,0,0,0,0,0,0,0,0,0,0,0,5037,5038,
4811,4812,3936,3937,3938,3939,4086,4087,4013,3939,4013,3939,4087,3938,3939,4086,4087,4087,3939,4087,4013,3939,4013,4087,3937,3938,3939,4087,4087,3937,3938,3939,4086,4087,3939,3939,3937,3938,3939,3939,4087,4087,4013,4087,3939,3940,3871,3871,3945,3871,4164,4165,3945,3946,3871,3872,3935,3936,3937,4010,4011,4012,4013,4013,0,0,0,0,0,0,0,0,0,0,0,0,0,0,0,0,0,0,0,0,0,0,0,0,0,0,0,0,0,0,0,0,0,0,0,0,0,0,0,0,0,0,0,0,0,0,0,0,0,0,0,0,0,0,5037,5038,
4811,4812,3936,3937,3938,3939,4086,4087,4087,3939,4087,3939,4087,3939,3939,4085,4086,4087,3939,4087,4087,3939,4087,4087,3938,3939,3939,4086,4087,3938,3939,3939,4086,4087,3939,4013,3937,3938,3939,4013,4086,4087,4087,4013,3939,3940,3945,3871,3945,3945,3871,3945,3871,3872,3871,3872,3935,3936,3937,0,4010,4011,4012,4013,0,0,0,0,0,0,0,0,0,0,0,0,0,0,0,0,0,0,0,0,0,0,0,0,0,0,0,0,0,0,0,0,0,0,0,0,0,0,0,0,0,0,0,0,0,0,0,0,0,0,0,0,0,0,5037,5038,
4811,4812,3936,3937,3938,3939,4085,4086,4087,3939,4087,3939,4087,3939,4013,4085,4086,4087,3939,4086,4087,3939,4086,4087,3938,3939,3938,3939,4087,3938,3939,4013,4086,4087,4013,4087,3938,3939,3939,4087,4085,4086,4087,4087,3939,3940,3871,3872,3872,3946,4164,4165,3871,3872,3871,3872,3935,3936,3937,0,4010,4011,4012,4013,0,0,0,0,0,0,0,0,0,0,0,0,0,0,0,0,0,0,0,0,0,0,0,0,0,0,0,0,0,0,0,0,0,0,0,0,0,0,0,0,0,0,0,0,0,0,0,0,0,0,0,0,0,0,5037,5038,
4811,4812,3936,3936,3937,3938,3939,4086,4087,3939,4087,3939,4087,3939,4087,4085,4086,4087,3939,4086,4087,3939,4086,4087,3938,3939,3938,3939,3937,3938,3939,4087,4085,4086,4087,4087,3938,3939,3936,3937,3938,3939,4087,4087,3939,3940,3871,3872,3946,3946,3871,3945,3871,3872,3871,3872,3935,3936,3937,0,0,0,0,0,0,0,0,0,0,0,0,0,0,0,0,0,0,0,0,0,0,0,0,0,0,0,0,0,0,0,0,0,0,0,0,0,0,0,0,0,0,0,0,0,0,0,0,0,0,0,0,0,0,0,0,0,0,0,5037,5038,
4811,4812,3936,3936,3937,3938,3939,4086,4087,4013,4087,4013,4087,3938,3939,4085,4086,4087,3939,4086,4087,4013,4086,4087,3938,3939,3938,3939,3937,3938,3936,3937,3938,3939,4087,4087,3938,3936,3936,3937,3938,3939,4087,4087,3939,3940,3871,3872,3946,3872,4164,4165,3872,3872,3871,3872,3935,3936,3937,1365,1366,0,0,0,0,0,0,0,0,0,0,0,0,0,0,0,0,0,0,0,0,0,0,0,0,0,0,0,0,0,0,0,0,0,0,0,0,0,0,0,0,0,0,0,0,0,0,0,0,0,0,0,0,0,0,0,0,0,5037,5038,
4811,4812,3936,3936,3937,3938,3939,4086,4087,4087,4087,4087,4087,3938,3939,4085,4086,4087,3939,4086,4087,4087,4086,4087,3938,3939,3939,3939,3937,3936,3936,3937,3938,3939,4087,4087,3936,4010,3936,3937,3938,3939,4087,4087,3939,3940,3871,3872,3945,3946,3872,3871,3872,3946,3871,3872,3935,3936,3937,1439,1440,0,0,0,0,0,0,0,0,0,0,0,0,0,0,0,0,0,0,0,0,0,0,0,0,0,0,0,0,0,0,0,0,0,0,0,0,0,0,0,0,0,0,0,0,0,0,0,0,0,0,0,0,0,0,0,0,0,5037,5038,
4811,4812,3936,3936,3937,3938,3939,4086,4087,4086,4087,4086,4087,3938,3939,4085,4086,4087,3939,4086,4087,4085,4086,4087,3938,3939,4013,3938,3939,4010,3936,3937,3938,3939,4087,4087,3939,4084,3936,3936,3937,3938,3939,4087,3939,3940,3871,3871,3872,3946,4164,4165,3872,3946,3871,3872,3935,3936,3937,1439,1440,0,0,0,0,0,0,0,0,0,0,0,0,0,0,0,0,0,0,0,0,0,0,0,0,0,0,0,0,0,0,0,0,0,0,0,0,0,0,0,0,0,0,0,0,0,0,0,0,0,0,0,0,0,0,0,0,0,5037,5038,
4811,4812,3936,3936,3937,3936,3936,3937,3938,3939,4085,4086,4087,3938,3939,4085,4086,4087,3939,4086,4087,3939,4086,4087,3938,3939,4087,3938,3939,4084,3936,3937,3938,3939,4087,4087,4013,3939,4010,3936,3937,3938,3939,3938,3939,3940,3871,3871,3872,3945,3946,3871,3872,3946,3872,3872,3935,3936,3937,1439,1440,0,0,0,0,0,0,0,0,0,0,0,0,0,0,0,0,0,0,0,0,0,0,0,0,0,0,0,0,0,0,0,0,0,0,0,0,0,0,0,0,0,0,0,0,0,0,0,0,0,0,0,0,0,0,0,0,0,5037,5038,
4885,4886,4010,3936,3937,4010,3936,3937,3938,3939,4085,4086,4087,3938,3939,4085,4086,4087,3939,4086,4087,4013,4086,4087,3939,3939,4087,3939,3938,3939,3937,3938,3939,3939,4085,4086,4087,3939,3939,3938,3939,3936,3937,3938,3939,4014,3871,3871,3872,3945,4164,4165,3872,3946,3946,3872,3935,3936,3937,1439,1440,0,0,0,0,0,0,0,0,0,0,0,0,0,0,0,0,0,0,0,0,0,0,0,0,0,0,0,0,0,0,0,0,0,0,0,0,0,0,0,0,0,0,0,0,0,0,0,0,0,0,0,0,0,0,0,0,0,5037,5038,
4811,4812,4084,3936,3936,4084,3936,3936,3937,3938,3939,4086,4087,3939,3939,4085,4086,4087,3939,4086,4087,4087,4086,4087,4013,3939,4087,4013,3938,3939,3936,3937,3938,3939,4085,4086,4087,3939,4013,3939,3939,3939,3938,3939,3939,4088,3871,3871,3872,3871,3872,3946,3872,3945,3946,3872,3935,3936,3937,1439,1440,0,0,0,0,0,0,0,0,1403,1404,0,0,0,0,0,4767,4768,0,0,0,0,0,0,0,0,0,0,0,0,0,0,0,0,0,0,0,0,0,0,0,0,0,0,0,0,0,0,0,0,0,0,0,0,0,0,0,0,5037,5038,
4811,4812,4084,3936,4010,4084,4010,3936,3937,3938,3939,4086,4087,4013,3939,4085,4086,4087,3939,4085,4086,4087,4086,4087,4087,3939,4087,4087,3939,3939,3936,3937,3938,3939,4085,4086,4087,3939,4087,3939,4013,4013,3939,3939,3939,4088,3871,3871,3871,3871,4164,4165,3872,3945,3946,3872,3935,3936,3937,1439,1440,0,0,0,0,0,0,0,0,1477,1478,0,0,0,0,0,4841,4842,0,0,0,0,0,0,0,0,0,0,0,0,0,0,0,0,0,0,0,0,0,0,0,0,0,0,0,0,0,0,0,0,0,0,0,0,0,0,0,0,5037,5038,
4811,4812,3936,3936,3937,3938,3939,3939,3939,3939,3939,4086,4087,4087,3939,4085,4086,4087,4013,4085,4086,4087,4085,4086,4087,4013,4086,4087,4013,3939,3936,3937,3938,3939,4085,4086,4087,3939,4087,4013,4087,4087,4013,4013,3939,4088,3871,3945,3945,3871,3871,3871,3872,3945,3946,3946,3935,3936,3937,1513,1514,0,0,0,0,0,0,0,0,1551,1552,0,0,0,0,0,4915,4916,4916,4916,4916,4916,4916,4761,4762,0,0,0,0,0,0,0,0,0,0,0,0,0,0,0,0,0,0,0,0,0,0,0,0,0,0,0,0,0,0,0,0,0,5037,5038,
4885,4886,4010,4010,4011,4012,4013,4013,4013,4013,4013,4085,4086,4087,4013,4085,4086,4087,4087,4085,4086,4087,4085,4086,4087,4087,4086,4087,4087,4013,4010,4011,4012,4013,4085,4086,4087,4013,4087,4087,4087,4087,4087,4087,4013,4088,3945,3945,3946,3945,4164,4165,3946,3945,3945,3946,3935,3936,3937,1587,1588,0,0,0,0,0,0,0,0,1625,1626,0,0,0,0,0,4989,4990,4990,4990,4990,4990,4990,4835,4836,0,0,0,0,0,0,0,0,0,0,0,0,0,0,0,0,0,0,0,0,0,0,0,0,0,0,0,0,0,0,0,0,0,5037,5038,
5033,5034,5034,5034,5034,5034,5034,5034,5034,5034,5034,5034,5034,5034,5034,5034,5034,5034,5034,5034,5034,5034,5034,5034,5034,5034,5034,5034,5034,5034,5034,5034,5034,5034,5034,5034,5034,5035,5036,5037,5037,5037,5037,5037,5037,5037,5037,5037,5034,5034,5034,5034,5034,5035,5034,5034,5034,5034,5034,5034,5034,5034,5034,5034,5034,5034,5034,5035,5035,5035,5035,5035,5035,5035,5035,5035,5035,5035,5034,5035,5034,5035,5036,4907,4908,5034,5035,5036,5034,5035,5035,5035,5035,5035,5035,5035,5035,5035,5035,5035,5035,5035,5035,5035,5035,5035,5035,5035,5035,5035,5035,5035,5035,5035,5035,5035,5035,5035,5037,5038,
5107,5108,5108,5108,5108,5108,5108,5108,5108,5108,5108,5108,5108,5108,5108,5108,5108,5108,5108,5108,5108,5108,5108,5108,5108,5108,5108,5108,5108,5108,5108,5108,5108,5108,5108,5108,5108,5109,5110,5111,5111,5111,5111,5111,5111,5111,5111,5111,5108,5108,5108,5108,5108,5109,5108,5108,5108,5108,5108,5108,5108,5108,5108,5108,5108,5108,5108,5109,5109,5109,5109,5109,5109,5109,5109,5109,5109,5109,5108,5109,5108,5109,5110,4981,4982,5108,5109,5110,5108,5109,5109,5109,5109,5109,5109,5109,5109,5109,5109,5109,5109,5109,5109,5109,5109,5109,5109,5109,5109,5109,5109,5109,5109,5109,5109,5109,5109,5109,5111,5112
</data>
 </layer>
 <imagelayer id="3" name="Old map" opacity="0.84" offsetx="-2" offsety="0">
  <image source="../public/assets/maps/city-base.png" width="950" height="547"/>
 </imagelayer>
 <layer id="5" name="Tile Layer 3" width="120" height="68">
  <data encoding="csv">
0,0,0,0,0,0,0,0,0,0,0,0,0,0,0,0,0,0,0,0,0,0,0,0,0,0,0,0,0,0,0,0,0,0,0,0,0,0,0,0,0,0,0,0,0,0,0,0,0,0,0,0,0,0,0,0,0,0,0,0,0,0,0,0,0,0,0,0,0,0,0,0,0,0,0,0,0,0,0,0,0,0,0,0,0,0,0,0,0,0,0,0,0,0,0,0,0,0,0,0,0,0,0,0,0,0,0,0,0,0,0,0,0,0,0,0,0,0,0,0,
0,0,0,0,0,0,0,0,0,0,0,0,0,0,0,0,0,0,0,0,0,0,0,0,0,0,0,0,0,0,0,0,0,0,0,0,0,0,0,0,0,0,0,0,0,0,0,0,0,0,0,0,0,0,0,0,0,0,0,0,0,0,0,0,0,0,0,0,0,0,0,0,0,0,0,0,0,0,0,0,0,0,0,0,0,0,0,0,0,0,0,0,0,0,0,0,0,0,0,0,0,0,0,0,0,0,0,0,0,0,0,0,0,0,0,0,0,0,0,0,
0,0,0,0,0,0,0,0,0,0,0,0,0,0,0,0,0,0,0,0,0,0,0,0,0,0,0,0,0,0,0,0,0,0,0,0,0,0,0,0,0,0,0,0,0,0,0,0,0,0,0,0,0,0,0,0,0,0,0,0,0,0,0,0,0,0,0,0,0,0,0,0,0,0,0,0,0,0,0,0,0,0,0,0,0,0,0,0,0,0,0,0,0,0,0,0,0,0,0,0,0,0,0,0,0,0,0,0,0,0,0,0,0,0,0,0,0,0,0,0,
0,0,0,0,0,0,0,0,0,0,0,0,0,0,0,0,0,0,0,0,0,0,0,0,0,0,0,0,0,0,0,0,0,0,0,0,0,0,0,0,0,0,0,0,0,0,0,0,0,0,0,0,0,0,0,0,0,0,0,0,0,0,0,0,0,0,0,0,0,0,0,0,0,0,0,0,0,0,0,0,0,0,0,0,0,0,0,0,0,0,0,0,0,0,0,0,0,0,0,0,0,0,0,0,0,0,0,0,0,0,0,0,0,0,0,0,0,0,0,0,
0,0,0,0,0,0,0,0,0,0,0,0,0,0,0,0,0,0,0,0,0,0,0,0,0,0,0,0,0,0,0,0,0,0,0,0,0,0,0,0,0,0,0,0,0,0,0,0,0,0,0,0,0,0,0,0,0,0,0,0,0,0,0,0,0,0,0,0,0,0,0,0,0,0,0,0,0,0,0,0,0,0,0,0,0,0,0,0,0,0,0,0,0,0,0,0,0,0,0,0,0,0,0,0,0,0,0,0,0,0,0,0,0,0,0,0,0,0,0,0,
0,0,0,0,0,0,0,0,0,0,0,0,0,0,0,0,0,0,0,0,0,0,0,0,0,0,0,0,0,0,0,0,0,0,0,0,0,0,0,0,0,0,0,0,0,0,0,0,0,0,0,0,0,0,0,0,0,0,0,0,0,0,0,0,0,0,0,0,0,0,0,0,0,0,0,0,0,0,0,0,0,0,0,0,0,0,0,0,0,0,0,0,0,0,0,0,0,0,0,0,0,0,0,0,0,0,0,0,0,0,0,0,0,0,0,0,0,0,0,0,
0,0,0,0,0,0,0,0,0,0,0,0,0,0,0,0,0,0,0,0,0,0,0,0,0,0,0,0,0,0,0,0,0,0,0,0,0,0,0,0,0,0,0,0,0,0,0,0,0,0,0,0,0,0,0,0,0,0,0,0,0,0,0,0,0,0,0,0,0,0,0,0,0,0,0,0,0,0,0,0,0,0,0,0,0,0,0,0,0,0,0,0,0,0,0,0,0,0,0,0,0,0,0,0,0,0,0,0,0,0,0,0,0,0,0,0,0,0,0,0,
0,0,0,0,0,0,0,0,0,0,0,0,0,0,0,0,0,0,0,0,0,0,0,0,0,0,0,0,0,0,0,0,0,0,0,0,0,0,0,0,0,0,0,0,0,0,0,0,0,0,0,0,0,0,0,0,0,0,0,0,0,0,0,0,0,0,0,0,0,0,0,0,0,0,0,0,0,0,0,0,0,0,0,0,0,0,0,0,0,0,0,0,0,0,0,0,0,0,0,0,0,0,0,0,0,0,0,0,0,0,0,0,0,0,0,0,0,0,0,0,
0,0,0,0,0,0,0,0,0,0,0,0,0,0,0,0,0,0,0,0,0,0,0,0,0,0,0,0,0,0,0,0,0,0,0,0,0,0,0,0,0,0,0,0,0,0,0,0,0,0,0,0,0,0,0,0,0,0,0,0,0,0,0,0,0,0,0,0,0,0,0,0,0,0,0,0,0,0,0,0,0,0,0,0,0,0,0,0,0,0,0,0,0,0,0,0,0,0,0,0,0,0,0,0,0,0,0,0,0,0,0,0,0,0,0,0,0,0,0,0,
0,0,0,0,0,0,0,0,0,0,0,0,0,0,0,0,0,0,0,0,0,0,0,0,0,0,0,0,0,0,0,0,0,0,0,0,0,0,0,0,0,0,0,0,0,0,0,0,0,0,0,0,0,0,0,0,0,0,0,0,0,0,0,0,0,0,0,0,0,0,0,0,0,0,0,0,0,0,0,0,0,0,0,0,0,0,0,0,0,0,0,0,0,0,0,0,0,0,0,0,0,0,0,0,0,0,0,0,0,0,0,0,0,0,0,0,0,0,0,0,
0,0,0,0,0,0,0,0,0,0,0,0,0,0,0,0,0,0,0,0,0,0,0,0,0,0,0,0,0,0,0,0,0,0,0,0,0,0,0,0,0,0,0,0,0,0,0,0,0,0,0,0,0,0,0,0,0,0,0,0,0,0,0,0,0,0,0,0,0,0,0,0,0,0,0,0,0,0,0,0,0,0,0,0,0,0,0,0,0,0,0,0,0,0,0,0,0,0,0,0,0,0,0,0,0,0,0,0,0,0,0,0,0,0,0,0,0,0,0,0,
0,0,0,0,0,0,0,0,0,0,0,0,0,0,0,0,0,0,0,0,0,0,0,0,0,0,0,0,0,0,0,0,0,0,0,0,0,0,0,0,0,0,0,0,0,0,0,0,0,0,0,0,0,0,0,0,0,0,0,0,0,0,0,0,0,0,0,0,0,0,0,0,0,0,0,0,0,0,0,0,0,0,0,0,0,0,0,0,0,0,0,0,0,0,0,0,0,0,0,0,0,0,0,0,0,0,0,0,0,0,0,0,0,0,0,0,0,0,0,0,
0,0,0,0,0,0,0,0,0,0,0,0,0,0,0,0,0,0,0,0,0,0,0,0,0,0,0,0,0,0,0,0,0,0,0,0,0,0,0,0,0,0,0,0,0,0,0,0,0,0,0,0,0,0,0,0,0,0,0,0,0,0,0,0,0,0,0,0,0,0,0,0,0,0,0,0,0,0,0,0,0,0,0,0,0,0,0,0,0,0,0,0,0,0,0,0,0,0,0,0,0,0,0,0,0,0,0,0,0,0,0,0,0,0,0,0,0,0,0,0,
0,0,0,0,0,0,0,0,0,0,0,0,0,0,0,0,0,0,0,0,0,0,0,0,0,0,0,0,0,0,0,0,0,0,0,0,0,0,0,0,0,0,0,0,0,0,0,0,0,0,0,0,0,0,0,0,0,0,0,0,0,0,0,0,0,0,0,0,0,0,0,0,0,0,0,0,0,0,0,0,0,0,0,0,0,0,0,0,0,0,0,0,0,0,0,0,0,0,0,0,0,0,0,0,0,0,0,0,0,0,0,0,0,0,0,0,0,0,0,0,
0,0,0,0,0,0,0,0,0,0,0,0,0,0,0,0,0,0,0,0,0,0,0,0,0,0,0,0,0,0,0,0,0,0,0,0,0,0,0,0,0,0,0,0,0,0,0,0,0,0,0,0,0,0,0,0,0,0,0,0,0,0,0,0,0,0,0,0,0,0,0,0,0,0,0,0,0,0,0,0,0,0,0,0,0,0,0,0,0,0,0,0,0,0,0,0,0,0,0,0,0,0,0,0,0,0,0,0,0,0,0,0,0,0,0,0,0,0,0,0,
0,0,0,0,0,0,0,0,0,0,0,0,0,0,0,0,0,0,0,0,0,0,0,0,0,0,0,0,0,0,0,0,0,0,0,0,0,0,0,0,0,0,0,0,0,0,0,0,0,0,0,0,0,0,0,0,0,0,0,0,0,0,0,0,0,0,0,0,0,0,0,0,0,0,0,0,0,0,0,0,0,0,0,0,0,0,0,0,0,0,0,0,0,0,0,0,0,0,0,0,0,0,0,0,0,0,0,0,0,0,0,0,0,0,0,0,0,0,0,0,
0,0,0,0,0,0,0,0,0,0,0,0,0,0,0,0,0,0,0,0,0,0,0,0,0,0,0,0,0,0,0,0,0,0,0,0,0,0,0,0,0,0,0,0,0,0,0,0,0,0,0,0,0,0,0,0,0,0,0,0,0,0,0,0,0,0,0,0,0,0,0,0,0,0,0,0,0,0,0,0,0,0,0,0,0,0,0,0,0,0,0,0,0,0,0,0,0,0,0,0,0,0,0,0,0,0,0,0,0,0,0,0,0,0,0,0,0,0,0,0,
0,0,0,0,0,0,0,0,0,0,0,0,0,0,0,0,0,0,0,0,0,0,0,0,0,0,0,0,0,0,0,0,0,0,0,0,0,0,0,0,0,0,0,0,0,0,0,0,0,0,0,0,0,0,0,0,0,0,0,0,0,0,0,0,0,0,0,0,0,0,0,0,0,0,0,0,0,0,0,0,0,0,0,0,0,0,0,0,0,0,0,0,0,0,0,0,0,0,0,0,0,0,0,0,0,0,0,0,0,0,0,0,0,0,0,0,0,0,0,0,
0,0,0,0,0,0,0,0,0,0,0,0,0,0,0,0,0,0,0,0,0,0,0,0,0,0,0,0,0,0,0,0,0,0,0,0,0,0,0,0,0,0,0,0,0,0,0,0,0,0,0,0,0,0,0,0,0,0,0,0,0,0,0,0,0,0,0,0,0,0,0,0,0,0,0,0,0,0,0,0,0,0,0,0,0,0,0,0,0,0,0,0,0,0,0,0,0,0,0,0,0,0,0,0,0,0,0,0,0,0,0,0,0,0,0,0,0,0,0,0,
0,0,0,0,0,0,0,0,0,0,0,0,0,0,0,0,0,0,0,0,0,0,0,0,0,0,0,0,0,0,0,0,0,0,0,0,0,0,0,0,0,0,0,0,0,0,0,0,0,0,0,0,0,0,0,0,0,0,0,0,0,0,0,0,0,0,0,0,0,0,0,0,0,0,0,0,0,0,0,0,0,0,0,0,0,0,0,0,0,0,0,0,0,0,0,0,0,0,0,0,0,0,0,0,0,0,0,0,0,0,0,0,0,0,0,0,0,0,0,0,
0,0,0,0,0,0,0,0,0,0,0,0,0,0,0,0,0,0,0,0,0,0,0,0,0,0,0,0,0,0,0,0,0,0,0,0,0,0,0,0,0,0,0,0,0,0,0,0,0,0,0,0,0,0,0,0,0,0,0,0,0,0,0,0,0,0,0,0,0,0,0,0,0,0,0,0,0,0,0,0,0,0,0,0,0,0,0,0,0,0,0,0,0,0,0,0,0,0,0,0,0,0,0,0,0,0,0,0,0,0,0,0,0,0,0,0,0,0,0,0,
0,0,0,0,0,0,0,0,0,0,0,0,0,0,0,0,0,0,0,0,0,0,0,0,0,0,0,0,0,0,0,0,0,0,0,0,0,0,0,0,0,0,0,0,0,0,0,0,0,0,0,0,0,0,0,0,0,0,0,0,0,0,0,0,0,0,0,0,0,0,0,0,0,0,0,0,0,0,0,0,0,0,0,0,0,0,0,0,0,0,0,0,0,0,0,0,0,0,0,0,0,0,0,0,0,0,0,0,0,0,0,0,0,0,0,0,0,0,0,0,
0,0,0,0,0,0,0,0,0,0,0,0,0,0,0,0,0,0,0,0,0,0,0,0,0,0,0,0,0,0,0,0,0,0,0,0,0,0,0,0,0,0,0,0,0,0,0,0,0,0,0,0,0,0,0,0,0,0,0,0,0,0,0,0,0,0,0,0,0,0,0,0,0,0,0,0,0,0,0,0,0,0,0,0,0,0,0,0,0,0,0,0,0,0,0,0,0,0,0,0,0,0,0,0,0,0,0,0,0,0,0,0,0,0,0,0,0,0,0,0,
0,0,0,0,0,0,0,0,0,0,0,0,0,0,0,0,0,0,0,0,0,0,0,0,0,0,0,0,0,0,0,0,0,0,0,0,0,0,0,0,0,0,0,0,0,0,0,0,0,0,0,0,0,0,0,0,0,0,0,0,0,0,0,0,0,0,0,0,0,0,0,0,0,0,0,0,0,0,0,0,0,0,0,0,0,0,0,0,0,0,0,0,0,0,0,0,0,0,0,0,0,0,0,0,0,0,0,0,0,0,0,0,0,0,0,0,0,0,0,0,
0,0,0,0,0,0,0,0,0,0,0,0,0,0,0,0,0,0,0,0,0,0,0,0,0,0,0,0,0,0,0,0,0,0,0,0,0,0,0,0,0,0,0,0,0,0,0,0,0,0,0,0,0,0,0,0,0,0,0,0,0,0,0,0,0,0,0,0,0,0,0,0,0,0,0,0,0,0,0,0,0,0,0,0,0,0,0,0,0,0,0,0,0,0,0,0,0,0,0,0,0,0,0,0,0,0,0,0,0,0,0,0,0,0,0,0,0,0,0,0,
0,0,0,0,0,0,0,0,0,0,0,0,0,0,0,0,0,0,0,0,0,0,0,0,0,0,0,0,0,0,0,0,0,0,0,0,0,0,0,0,0,0,0,0,0,0,0,0,0,0,0,0,0,0,0,0,0,0,0,0,0,0,0,0,0,0,0,0,0,0,0,0,0,0,0,0,0,0,0,0,0,0,0,0,0,0,0,0,0,0,0,0,0,0,0,0,0,0,0,0,0,0,0,0,0,0,0,0,0,0,0,0,0,0,0,0,0,0,0,0,
0,0,0,0,0,0,0,0,0,0,0,0,0,0,0,0,0,0,0,0,0,0,0,0,0,0,0,0,0,0,0,0,0,0,0,0,0,0,0,0,0,0,0,0,0,0,0,0,0,0,0,0,0,0,0,0,0,0,0,0,0,0,0,0,0,0,0,0,0,0,0,0,0,0,0,0,0,0,0,0,0,0,0,0,0,0,0,0,0,0,0,0,0,0,0,0,0,0,0,0,0,0,0,0,0,0,0,0,0,0,0,0,0,0,0,0,0,0,0,0,
0,0,0,0,0,0,0,0,0,0,0,0,0,0,0,0,0,0,0,0,0,0,0,0,0,0,0,0,0,0,0,0,0,0,0,0,0,0,0,0,0,0,0,0,0,0,0,0,0,0,0,0,0,0,0,0,0,0,0,0,0,0,0,0,0,0,0,0,0,0,0,0,0,0,0,0,0,0,0,0,0,0,0,0,0,0,0,0,0,0,0,0,0,0,0,0,0,0,0,0,0,0,0,0,0,0,0,0,0,0,0,0,0,0,0,0,0,0,0,0,
0,0,0,0,0,0,0,0,0,0,0,0,0,0,0,0,0,0,0,0,0,0,0,0,0,0,0,0,0,0,0,0,0,0,0,0,0,0,0,0,0,0,0,0,0,0,0,0,0,0,0,0,0,0,0,0,0,0,0,0,0,0,0,0,0,0,0,0,0,0,0,0,0,0,0,0,0,0,0,0,0,0,0,0,0,0,0,0,0,0,0,0,0,0,0,0,0,0,0,0,0,0,0,0,0,0,0,0,0,0,0,0,0,0,0,0,0,0,0,0,
0,0,0,0,0,0,0,0,0,0,0,0,0,0,0,0,0,0,0,0,0,0,0,0,0,0,0,0,0,0,0,0,0,0,0,0,0,0,0,0,0,0,0,0,0,0,0,0,0,0,0,0,0,0,0,0,0,0,0,0,0,0,0,0,0,0,0,0,0,0,0,0,0,0,0,0,0,0,0,0,0,0,0,0,0,0,0,0,0,0,0,0,0,0,0,0,0,0,0,0,0,0,0,0,0,0,0,0,0,0,0,0,0,0,0,0,0,0,0,0,
0,0,0,0,0,0,0,0,0,0,0,0,0,0,0,0,0,0,0,0,0,0,0,0,0,0,0,0,0,0,0,0,0,0,0,0,0,0,0,0,0,0,0,0,0,0,0,0,0,0,0,0,0,0,0,0,0,0,0,0,0,0,0,0,0,0,0,0,0,0,0,0,0,0,0,0,0,0,0,0,0,0,0,0,0,0,0,0,0,0,0,0,0,0,0,0,0,0,0,0,0,0,0,0,0,0,0,0,0,0,0,0,0,0,0,0,0,0,0,0,
0,0,0,0,0,0,0,0,0,0,0,0,0,0,0,0,0,0,0,0,0,0,0,0,0,0,0,0,0,0,0,0,0,0,0,0,0,0,0,0,0,0,0,0,0,0,0,0,0,0,0,0,0,0,0,0,0,0,0,0,0,0,0,0,0,0,0,0,0,0,0,0,0,0,0,0,0,0,0,0,0,0,0,0,0,0,0,0,0,0,0,0,0,0,0,0,0,0,0,0,0,0,0,0,0,0,0,0,0,0,0,0,0,0,0,0,0,0,0,0,
0,0,0,0,0,0,0,0,0,0,0,0,0,0,0,0,0,0,0,0,0,0,0,0,0,0,0,0,0,0,0,0,0,0,0,0,0,0,0,0,0,0,0,0,0,0,0,0,0,0,0,0,0,0,0,0,0,0,0,0,0,0,0,0,0,0,0,0,0,0,0,0,0,0,0,0,0,0,0,0,0,0,0,0,0,0,0,0,0,0,0,0,0,0,0,0,0,0,0,0,0,0,0,0,0,0,0,0,0,0,0,0,0,0,0,0,0,0,0,0,
0,0,0,0,0,0,0,0,0,0,0,0,0,0,0,0,0,0,0,0,0,0,0,0,0,0,0,0,0,0,0,0,0,0,0,0,0,0,0,0,0,0,0,0,0,0,0,0,0,0,0,0,0,0,0,0,0,0,0,0,0,0,0,0,0,0,0,0,0,0,0,0,0,0,0,0,0,0,0,0,0,0,0,0,0,0,0,0,0,0,0,0,0,0,0,0,0,0,0,0,0,0,0,0,0,0,0,0,0,0,0,0,0,0,0,0,0,0,0,0,
0,0,0,0,0,0,0,0,0,0,0,0,0,0,0,0,0,0,0,0,0,0,0,0,0,0,0,0,0,0,0,0,0,0,0,0,0,0,0,0,0,0,0,0,0,0,0,0,0,0,0,0,0,0,0,0,0,0,0,0,0,0,0,0,0,0,0,0,0,0,0,0,0,0,0,0,0,0,0,0,0,0,0,0,0,0,0,0,0,0,0,0,0,0,0,0,0,0,0,0,0,0,0,0,0,0,0,0,0,0,0,0,0,0,0,0,0,0,0,0,
0,0,0,0,0,0,0,0,0,0,0,0,0,0,0,0,0,0,0,0,0,0,0,0,0,0,0,0,0,0,0,0,0,0,0,0,0,0,0,0,0,0,0,0,0,0,0,0,0,0,0,0,0,0,0,0,0,0,0,0,0,0,0,0,0,0,0,0,0,0,0,0,0,0,0,0,0,0,0,0,0,0,0,0,0,0,0,0,0,0,0,0,0,0,0,0,0,0,0,0,0,0,0,0,0,0,0,0,0,0,0,0,0,0,0,0,0,0,0,0,
0,0,0,0,0,0,0,0,0,0,0,0,0,0,0,0,0,0,0,0,0,0,0,0,0,0,0,0,0,0,0,0,0,0,0,0,0,0,0,0,0,0,0,0,0,0,0,0,0,0,0,0,0,0,0,0,0,0,0,0,0,0,0,0,0,0,0,0,0,0,0,0,0,0,0,0,0,0,0,0,0,0,0,0,0,0,0,0,0,0,0,0,0,0,0,0,0,0,0,0,0,0,0,0,0,0,0,0,0,0,0,0,0,0,0,0,0,0,0,0,
0,0,0,0,0,0,0,0,0,0,0,0,0,0,0,0,0,0,0,0,0,0,0,0,0,0,0,0,0,0,0,0,0,0,0,0,0,0,0,0,0,0,0,0,0,0,0,0,0,0,0,0,0,0,0,0,0,0,0,0,0,0,0,0,0,0,0,0,0,0,0,0,0,0,0,0,0,0,0,0,0,0,0,0,0,0,0,0,0,0,0,0,0,0,0,0,0,0,0,0,0,0,0,0,0,0,0,0,0,0,0,0,0,0,0,0,0,0,0,0,
0,0,0,0,0,0,0,0,0,0,0,0,0,0,0,0,0,0,0,0,0,0,0,0,0,0,0,0,0,0,0,0,0,0,0,0,0,0,0,0,0,0,0,0,0,0,0,0,0,0,0,0,0,0,0,0,0,0,0,0,0,0,0,0,0,0,0,0,0,0,0,0,0,0,0,0,0,0,0,0,0,0,0,0,0,0,0,0,0,0,0,0,0,0,0,0,0,0,0,0,0,0,0,0,0,0,0,0,0,0,0,0,0,0,0,0,0,0,0,0,
0,0,0,0,0,0,0,0,0,0,0,0,0,0,0,0,0,0,0,0,0,0,0,0,0,0,0,0,0,0,0,0,0,0,0,0,0,0,0,0,0,0,0,0,0,0,0,0,0,0,0,0,0,0,0,0,0,0,0,0,0,0,0,0,0,0,0,0,0,0,0,0,0,0,0,0,0,0,0,0,0,0,0,0,0,0,0,0,0,0,0,0,0,0,0,0,0,0,0,0,0,0,0,0,0,0,0,0,0,0,0,0,0,0,0,0,0,0,0,0,
0,0,0,0,0,0,0,0,0,0,0,0,0,0,0,0,0,0,0,0,0,0,0,0,0,0,0,0,0,0,0,0,0,0,0,0,0,0,0,0,0,0,0,0,0,0,0,0,0,0,0,0,0,0,0,0,0,0,0,0,0,0,0,0,0,0,0,0,0,0,0,0,0,0,0,0,0,0,0,0,0,0,0,0,0,0,0,0,0,0,0,0,0,0,0,0,0,0,0,0,0,0,0,0,0,0,0,0,0,0,0,0,0,0,0,0,0,0,0,0,
0,0,0,0,0,0,0,0,0,0,0,0,0,0,0,0,0,0,0,0,0,0,0,0,0,0,0,0,0,0,0,0,0,0,0,0,0,0,0,0,0,0,0,0,0,0,0,0,0,0,0,0,0,0,0,0,0,0,0,0,0,0,0,0,0,0,0,0,0,0,0,0,0,0,0,0,0,0,0,0,0,0,0,0,0,0,0,0,0,0,0,0,0,0,0,0,0,0,0,0,0,0,0,0,0,0,0,0,0,0,0,0,0,0,0,0,0,0,0,0,
0,0,0,0,0,0,0,0,0,0,0,0,0,0,0,0,0,0,0,0,0,0,0,0,0,0,0,0,0,0,0,0,0,0,0,0,0,0,0,0,0,0,0,0,0,0,0,0,0,0,0,0,0,0,0,0,0,0,0,0,0,0,0,0,0,0,0,0,0,0,0,0,0,0,0,0,0,0,0,0,0,0,0,0,0,0,0,0,0,0,0,0,0,0,0,0,0,0,0,0,0,0,0,0,0,0,0,0,0,0,0,0,0,0,0,0,0,0,0,0,
0,0,3871,3871,0,0,0,0,0,0,0,0,0,0,0,0,0,0,0,0,0,0,0,0,0,0,0,0,0,0,0,0,0,0,0,0,0,0,0,0,0,0,0,0,0,0,0,0,0,0,0,0,0,0,0,0,0,0,0,0,0,0,0,0,0,0,0,0,0,0,0,0,0,0,0,0,0,0,0,0,0,0,0,0,0,0,0,0,0,0,0,0,0,0,0,0,0,0,0,0,0,0,0,0,0,0,0,0,0,0,0,0,0,0,0,0,0,0,0,0,
0,0,3871,3871,0,0,0,0,0,0,0,0,0,0,0,0,0,0,0,0,0,0,0,0,0,0,0,0,0,0,0,0,0,0,0,0,0,0,0,0,0,0,0,0,0,0,0,0,0,0,0,0,0,0,0,0,0,0,0,0,0,0,0,0,0,0,0,0,0,0,0,0,0,0,0,0,0,0,0,0,0,0,0,0,0,0,0,0,0,0,0,0,0,0,0,0,0,0,0,0,0,0,0,0,0,0,0,0,0,0,0,0,0,0,0,0,0,0,0,0,
0,0,0,0,0,0,0,0,0,0,0,0,0,0,0,0,0,0,0,0,0,0,0,0,0,0,0,0,0,0,0,0,0,0,0,0,0,0,0,0,0,0,0,0,0,0,0,0,0,0,0,0,0,0,0,0,0,0,0,0,0,0,0,0,0,0,0,0,0,0,0,0,0,0,0,0,0,0,0,0,0,0,0,0,0,0,0,0,0,0,0,0,0,0,0,0,0,0,0,0,0,0,0,0,0,0,0,0,0,0,0,0,0,0,0,0,0,0,0,0,
0,0,0,0,0,0,0,0,0,0,0,0,0,0,0,0,0,0,0,0,0,0,0,0,0,0,0,0,0,0,0,0,0,0,0,0,0,0,0,0,0,0,0,0,0,0,0,0,0,0,0,0,0,0,0,0,0,0,0,0,0,0,0,0,0,0,0,0,0,0,0,0,0,0,0,0,0,0,0,0,0,0,0,0,0,0,0,0,0,0,0,0,0,0,0,0,0,0,0,0,0,0,0,0,0,0,0,0,0,0,0,0,0,0,0,0,0,0,0,0,
0,0,0,0,0,0,0,0,0,0,0,0,0,0,0,0,0,0,0,0,0,0,0,0,0,0,0,0,0,0,0,0,0,0,0,0,0,0,0,0,0,0,0,0,0,0,0,0,0,0,0,0,0,0,0,0,0,0,0,0,0,0,0,0,0,0,0,0,0,0,0,0,0,0,0,0,0,0,0,0,0,0,0,0,0,0,0,0,0,0,0,0,0,0,0,0,0,0,0,0,0,0,0,0,0,0,0,0,0,0,0,0,0,0,0,0,0,0,0,0,
0,0,0,0,0,0,0,0,0,0,0,0,0,0,0,0,0,0,0,0,0,0,0,0,0,0,0,0,0,0,0,0,0,0,0,0,0,0,0,0,0,0,0,0,0,0,0,0,0,0,0,0,0,0,0,0,0,0,0,0,0,0,0,0,0,0,0,0,0,0,0,0,0,0,0,0,0,0,0,0,0,0,0,0,0,0,0,0,0,0,0,0,0,0,0,0,0,0,0,0,0,0,0,0,0,0,0,0,0,0,0,0,0,0,0,0,0,0,0,0,
0,0,0,0,0,0,0,0,0,0,0,0,0,0,0,0,0,0,0,0,0,0,0,0,0,0,0,0,0,0,0,0,0,0,0,0,0,0,0,0,0,0,0,0,0,0,0,0,0,0,0,0,0,0,0,0,0,0,0,0,0,0,0,0,0,0,0,0,0,0,0,0,0,0,0,0,0,0,0,0,0,0,0,0,0,0,0,0,0,0,0,0,0,0,0,0,0,0,0,0,0,0,0,0,0,0,0,0,0,0,0,0,0,0,0,0,0,0,0,0,
0,0,0,0,0,0,0,0,0,0,0,0,0,0,0,0,0,0,0,0,0,0,0,0,0,0,0,0,0,0,0,0,0,0,0,0,0,0,0,0,0,0,0,0,0,0,0,0,0,0,0,0,0,0,0,0,0,0,0,0,0,0,0,0,0,0,0,0,0,0,0,0,0,0,0,0,0,0,0,0,0,0,0,0,0,0,0,0,0,0,0,0,0,0,0,0,0,0,0,0,0,0,0,0,0,0,0,0,0,0,0,0,0,0,0,0,0,0,0,0,
0,0,0,0,0,0,0,0,0,0,0,0,0,0,0,0,0,0,0,0,0,0,0,0,0,0,0,0,0,0,0,0,0,0,0,0,0,0,0,0,0,0,0,0,0,0,0,0,0,0,0,0,0,0,0,0,0,0,0,0,0,0,0,0,0,0,0,0,0,0,0,0,0,0,0,0,0,0,0,0,0,0,0,0,0,0,0,0,0,0,0,0,0,0,0,0,0,0,0,0,0,0,0,0,0,0,0,0,0,0,0,0,0,0,0,0,0,0,0,0,
0,0,0,0,0,0,0,0,0,0,0,0,0,0,0,0,0,0,0,0,0,0,0,0,0,0,0,0,0,0,0,0,0,0,0,0,0,0,0,0,0,0,0,0,0,0,0,0,0,0,0,0,0,0,0,0,0,0,0,0,0,0,0,0,0,0,0,0,0,0,0,0,0,0,0,0,0,0,0,0,0,0,0,0,0,0,0,0,0,0,0,0,0,0,0,0,0,0,0,0,0,0,0,0,0,0,0,0,0,0,0,0,0,0,0,0,0,0,0,0,
0,0,0,0,0,0,0,0,0,0,0,0,0,0,0,0,0,0,0,0,0,0,0,0,0,0,0,0,0,0,0,0,0,0,0,0,0,0,0,0,0,0,0,0,0,0,0,0,0,0,0,0,0,0,0,0,0,0,0,0,0,0,0,0,0,0,0,0,0,0,0,0,0,0,0,0,0,0,0,0,0,0,0,0,0,0,0,0,0,0,0,0,0,0,0,0,0,0,0,0,0,0,0,0,0,0,0,0,0,0,0,0,0,0,0,0,0,0,0,0,
0,0,0,0,0,0,0,0,0,0,0,0,0,0,0,0,0,0,0,0,0,0,0,0,0,0,0,0,0,0,0,0,0,0,0,0,0,0,0,0,0,0,0,0,0,0,0,0,0,0,0,0,0,0,0,0,0,0,0,0,0,0,0,0,0,0,0,0,0,0,0,0,0,0,0,0,0,0,0,0,0,0,0,0,0,0,0,0,0,0,0,0,0,0,0,0,0,0,0,0,0,0,0,0,0,0,0,0,0,0,0,0,0,0,0,0,0,0,0,0,
0,0,0,0,0,0,0,0,0,0,0,0,0,0,0,0,0,0,0,0,0,0,0,0,0,0,0,0,0,0,0,0,0,0,0,0,0,0,0,0,0,0,0,0,0,0,0,0,0,0,0,0,0,0,0,0,0,0,0,0,0,0,0,0,0,0,0,0,0,0,0,0,0,0,0,0,0,0,0,0,0,0,0,0,0,0,0,0,0,0,0,0,0,0,0,0,0,0,0,0,0,0,0,0,0,0,0,0,0,0,0,0,0,0,0,0,0,0,0,0,
0,0,0,0,0,0,0,0,0,0,0,0,0,0,0,0,0,0,0,0,0,0,0,0,0,0,0,0,0,0,0,0,0,0,0,0,0,0,0,0,0,0,0,0,0,0,0,0,0,0,0,0,0,0,0,0,0,0,0,0,0,0,0,0,0,0,0,0,0,0,0,0,0,0,0,0,0,0,0,0,0,0,0,0,0,0,0,0,0,0,0,0,0,0,0,0,0,0,0,0,0,0,0,0,0,0,0,0,0,0,0,0,0,0,0,0,0,0,0,0,
0,0,0,0,0,0,0,0,0,0,0,0,0,0,0,0,0,0,0,0,0,0,0,0,0,0,0,0,0,0,0,0,0,0,0,0,0,0,0,0,0,0,0,0,0,0,0,0,0,0,0,0,0,0,0,0,0,0,0,0,0,0,0,0,0,0,0,0,0,0,0,0,0,0,0,0,0,0,0,0,0,0,0,0,0,0,0,0,0,0,0,0,0,0,0,0,0,0,0,0,0,0,0,0,0,0,0,0,0,0,0,0,0,0,0,0,0,0,0,0,
0,0,0,0,0,0,0,0,0,0,0,0,0,0,0,0,0,0,0,0,0,0,0,0,0,0,0,0,0,0,0,0,0,0,0,0,0,0,0,0,0,0,0,0,0,0,0,0,0,0,0,0,0,0,0,0,0,0,0,0,0,0,0,0,0,0,0,0,0,0,0,0,0,0,0,0,0,0,0,0,0,0,0,0,0,0,0,0,0,0,0,0,0,0,0,0,0,0,0,0,0,0,0,0,0,0,0,0,0,0,0,0,0,0,0,0,0,0,0,0,
0,0,0,0,0,0,0,0,0,0,0,0,0,0,0,0,0,0,0,0,0,0,0,0,0,0,0,0,0,0,0,0,0,0,0,0,0,0,0,0,0,0,0,0,0,0,0,0,0,0,0,0,0,0,0,0,0,0,0,0,0,0,0,0,0,0,0,0,0,0,0,0,0,0,0,0,0,0,0,0,0,0,0,0,0,0,0,0,0,0,0,0,0,0,0,0,0,0,0,0,0,0,0,0,0,0,0,0,0,0,0,0,0,0,0,0,0,0,0,0,
0,0,0,0,0,0,0,0,0,0,0,0,0,0,0,0,0,0,0,0,0,0,0,0,0,0,0,0,0,0,0,0,0,0,0,0,0,0,0,0,0,0,0,0,0,0,0,0,0,0,0,0,0,0,0,0,0,0,0,0,0,0,0,0,0,0,0,0,0,0,0,0,0,0,0,0,0,0,0,0,0,0,0,0,0,0,0,0,0,0,0,0,0,0,0,0,0,0,0,0,0,0,0,0,0,0,0,0,0,0,0,0,0,0,0,0,0,0,0,0,
0,0,0,0,0,0,0,0,0,0,0,0,0,0,0,0,0,0,0,0,0,0,0,0,0,0,0,0,0,0,0,0,0,0,0,0,0,0,0,0,0,0,0,0,0,0,0,0,0,0,0,0,0,0,0,0,0,0,0,0,0,0,0,0,0,0,0,0,0,0,0,0,0,0,0,0,0,0,0,0,0,0,0,0,0,0,0,0,0,0,0,0,0,0,0,0,0,0,0,0,0,0,0,0,0,0,0,0,0,0,0,0,0,0,0,0,0,0,0,0,
0,0,0,0,0,0,0,0,0,0,0,0,0,0,0,0,0,0,0,0,0,0,0,0,0,0,0,0,0,0,0,0,0,0,0,0,0,0,0,0,0,0,0,0,0,0,0,0,0,0,0,0,0,0,0,0,0,0,0,0,0,0,0,0,0,0,0,0,0,0,0,0,0,0,0,0,0,0,0,0,0,0,0,0,0,0,0,0,0,0,0,0,0,0,0,0,0,0,0,0,0,0,0,0,0,0,0,0,0,0,0,0,0,0,0,0,0,0,0,0,
0,0,0,0,0,0,0,0,0,0,0,0,0,0,0,0,0,0,0,0,0,0,0,0,0,0,0,0,0,0,0,0,0,0,0,0,0,0,0,0,0,0,0,0,0,0,0,0,0,0,0,0,0,0,0,0,0,0,0,0,0,0,0,0,0,0,0,0,0,0,0,0,0,0,0,0,0,0,0,0,0,0,0,0,0,0,0,0,0,0,0,0,0,0,0,0,0,0,0,0,0,0,0,0,0,0,0,0,0,0,0,0,0,0,0,0,0,0,0,0,
0,0,0,0,0,0,0,0,0,0,0,0,0,0,0,0,0,0,0,0,0,0,0,0,0,0,0,0,0,0,0,0,0,0,0,0,0,0,0,0,0,0,0,0,0,0,0,0,0,0,0,0,0,0,0,0,0,0,0,0,0,0,0,0,0,0,0,0,0,0,0,0,0,0,0,0,0,0,0,0,0,0,0,0,0,0,0,0,0,0,0,0,0,0,0,0,0,0,0,0,0,0,0,0,0,0,0,0,0,0,0,0,0,0,0,0,0,0,0,0,
0,0,0,0,0,0,0,0,0,0,0,0,0,0,0,0,0,0,0,0,0,0,0,0,0,0,0,0,0,0,0,0,0,0,0,0,0,0,0,0,0,0,0,0,0,0,0,0,0,0,0,0,0,0,0,0,0,0,0,0,0,0,0,0,0,0,0,0,0,0,0,0,0,0,0,0,0,0,0,0,0,0,0,0,0,0,0,0,0,0,0,0,0,0,0,0,0,0,0,0,0,0,0,0,0,0,0,0,0,0,0,0,0,0,0,0,0,0,0,0,
0,0,0,0,0,0,0,0,0,0,0,0,0,0,0,0,0,0,0,0,0,0,0,0,0,0,0,0,0,0,0,0,0,0,0,0,0,0,0,0,0,0,0,0,0,0,0,0,0,0,0,0,0,0,0,0,0,0,0,0,0,0,0,0,0,0,0,0,0,0,0,0,0,0,0,0,0,0,0,0,0,0,0,0,0,0,0,0,0,0,0,0,0,0,0,0,0,0,0,0,0,0,0,0,0,0,0,0,0,0,0,0,0,0,0,0,0,0,0,0,
0,0,0,0,0,0,0,0,0,0,0,0,0,0,0,0,0,0,0,0,0,0,0,0,0,0,0,0,0,0,0,0,0,0,0,0,0,0,0,0,0,0,0,0,0,0,0,0,0,0,0,0,0,0,0,0,0,0,0,0,0,0,0,0,0,0,0,0,0,0,0,0,0,0,0,0,0,0,0,0,0,0,0,0,0,0,0,0,0,0,0,0,0,0,0,0,0,0,0,0,0,0,0,0,0,0,0,0,0,0,0,0,0,0,0,0,0,0,0,0
</data>
 </layer>
</map>
